;START_OF_HEADER
;HEADER_VERSION:0.1
;FLAVOR:Griffin
;GENERATOR.NAME:Cura_SteamEngine
;GENERATOR.VERSION:5.2.2
;GENERATOR.BUILD_DATE:2023-01-24
;TARGET_MACHINE.NAME:Ultimaker S5
;EXTRUDER_TRAIN.0.INITIAL_TEMPERATURE:130
;EXTRUDER_TRAIN.0.MATERIAL.VOLUME_USED:10605
;EXTRUDER_TRAIN.0.MATERIAL.GUID:0b4ca6ef-eac8-4b23-b3ca-5f21af00e54f
;EXTRUDER_TRAIN.0.NOZZLE.DIAMETER:0.4
;EXTRUDER_TRAIN.0.NOZZLE.NAME:AA 0.4
;EXTRUDER_TRAIN.1.INITIAL_TEMPERATURE:245
;EXTRUDER_TRAIN.1.MATERIAL.VOLUME_USED:2529
;EXTRUDER_TRAIN.1.MATERIAL.GUID:2f9d2279-9b0e-4765-bf9b-d1e1e13f3c49
;EXTRUDER_TRAIN.1.NOZZLE.DIAMETER:0.4
;EXTRUDER_TRAIN.1.NOZZLE.NAME:AA 0.4
;BUILD_PLATE.INITIAL_TEMPERATURE:85
;BUILD_VOLUME.TEMPERATURE:36
;PRINT.TIME:8928
;PRINT.GROUPS:1
;PRINT.SIZE.MIN.X:85.2
;PRINT.SIZE.MIN.Y:44.023
;PRINT.SIZE.MIN.Z:0.2
;PRINT.SIZE.MAX.X:330
;PRINT.SIZE.MAX.Y:237
;PRINT.SIZE.MAX.Z:48.05
;SLICE_UUID:077e13d1-2be6-4c1e-aa96-0a7ecbca4e97
;END_OF_HEADER
;Generated with Cura_SteamEngine 5.2.2
T1
M82 ;absolute extrusion mode

G92 E0
M109 S245
G280 S1
G0 Z20.001
G1 F2700 E-6.5
;LAYER_COUNT:241
;LAYER:-1
;TYPE:FILL
;MESH:3DBenchy.stl
G1 F900 E807.70556
G1 F2700 X168.146 Y111.196 E807.73049
G1 X167.508 Y111.196 E807.73649
G1 X169.382 Y113.069 E807.76141
G1 X163.725 Y113.069 E807.81462
G1 X161.851 Y111.196 E807.83954
G1 X162.489 Y111.196 E807.84554
G1 X160.615 Y113.07 E807.87046
G1 X159.783 Y113.071 E807.87829
G1 X159.405 Y113.148 E807.88192
G1 X159.102 Y113.346 E807.88532
G1 X158.932 Y113.553 E807.88784
G1 X158.878 Y113.1 E807.89213
G1 X159.383 Y113.076 E807.89689
G1 X159.761 Y112.912 E807.90076
G1 X160.089 Y112.516 E807.9056
G1 X160.173 Y112.136 E807.90926
G1 X160.173 Y111.12 E807.91881
G1 X160.219 Y110.811 E807.92175
M204 S1500
G0 F9000 X160.009 Y112.43
G0 X159.259 Y112.3
;TYPE:WALL-OUTER
G1 F1800 X158.372 Y112.303 E807.9301
G1 X158.198 Y112.385 E807.9319
G1 X158.109 Y112.555 E807.93371
G1 X157.927 Y115.695 E807.96329
G1 X157.851 Y115.81 E807.96459
G1 X157.62 Y115.849 E807.96679
G1 X157.56 Y116.926 E807.97694
G1 X159.427 Y117.03 E807.99452
G1 X159.593 Y114.059 E808.02251
G1 X159.747 Y113.871 E808.0248
G1 X170.207 Y113.87 E808.12318
G1 X170.345 Y113.925 E808.12457
G1 X170.407 Y114.059 E808.12596
G1 X170.574 Y117.03 E808.15395
G1 X172.44 Y116.926 E808.17153
G1 X172.387 Y115.959 E808.18063
G1 X172.38 Y115.849 E808.18167
G1 X172.149 Y115.81 E808.18387
G1 X172.074 Y115.695 E808.18517
G1 X171.891 Y112.554 E808.21476
G1 X171.766 Y112.356 E808.21696
G1 X171.632 Y112.303 E808.21832
G1 X170.782 Y112.296 E808.22631
G1 X170.626 Y112.161 E808.22825
G1 X170.624 Y102.447 E808.31961
G1 X170.473 Y102.071 E808.32342
G1 X170.197 Y101.765 E808.3273
G1 X169.749 Y101.55 E808.33197
G1 X160.268 Y101.554 E808.42114
G1 X159.886 Y101.706 E808.42501
G1 X159.703 Y101.848 E808.42719
G1 X159.462 Y102.198 E808.43119
G1 X159.376 Y102.554 E808.43463
G1 X159.373 Y112.16 E808.52498
G1 X159.259 Y112.3 E808.52668
G0 F9000 X159.059 Y112.3
G0 X159.061 Y113
G0 X160.009 Y112.43
G0 X160.151 Y102.832
G0 X160.787 Y103.077
G1 F1800 X160.952 Y102.965 E808.52855
G1 X169.112 Y102.963 E808.6053
G1 X169.213 Y103.163 E808.60741
G1 X169.211 Y110.231 E808.67388
G1 X169.134 Y110.356 E808.67526
G1 X169.013 Y110.396 E808.67646
G1 X160.891 Y110.396 E808.75285
G1 X160.789 Y110.231 E808.75468
G1 X160.787 Y103.077 E808.82196
G0 F9000 X160.952 Y102.965
G0 X160.953 Y102.965
G0 X160.953 Y102.263
G0 X160.151 Y102.832
G0 X160.151 Y110.527
G0 X160.626 Y110.676
;TYPE:WALL-INNER
G1 F2070.7 X160.339 Y110.309 E808.82697
G1 F1830.6 X160.334 Y103.163 E808.91266
G1 F2091.1 X160.579 Y102.721 E808.91804
G1 F2075.8 X160.874 Y102.516 E808.9219
G1 F1834.7 X169.013 Y102.51 E809.01931
G1 F1683.5 X169.404 Y102.586 E809.02445
G1 F1520 X169.593 Y102.763 E809.0281
G1 F1655.9 X169.666 Y103.163 E809.03343
G1 F1834.7 X169.662 Y110.309 E809.11895
G1 F2075.8 X169.374 Y110.676 E809.12395
G1 F2400 X169.013 Y110.796 E809.12753
G1 X160.987 Y110.796 E809.20302
G1 X160.626 Y110.676 E809.2066
G0 F9000 X160.418 Y110.883
G0 X170.522 Y113.234
G0 X170.619 Y113.634
G1 F1906.3 X170.899 Y114.032 E809.21222
G1 F1555.9 X171.007 Y115.89 E809.23796
G1 F1479.9 X171.062 Y116.484 E809.24657
G1 F1420.4 X171.894 Y116.437 E809.25903
G1 X171.883 Y116.239 E809.262
G1 F1455 X171.592 Y115.949 E809.26801
G1 F1528.8 X171.481 Y114 E809.29542
G1 F1906.3 X171.528 Y113.211 E809.30456
G1 F2400 X171.498 Y112.703 E809.30935
G1 X170.723 Y112.7 E809.31664
G1 X170.482 Y112.593 E809.31912
G1 X170.278 Y112.346 E809.32213
G1 X170.226 Y112.111 E809.32439
G1 X170.226 Y111.101 E809.33389
G1 F2075.8 X170.17 Y110.352 E809.34195
G1 F1834.7 X170.172 Y103.163 E809.42799
G1 F1655.9 X170.12 Y102.544 E809.43612
G1 F1496.8 X169.89 Y102.177 E809.44231
G1 F1520 X169.637 Y102.046 E809.44633
G1 F1683.5 X169.013 Y102.004 E809.45441
G1 F1834.7 X160.83 Y102.008 E809.55234
G1 F2075.8 X160.345 Y101.954 E809.55757
G1 F2400 X159.998 Y102.126 E809.56122
G1 X159.834 Y102.364 E809.56393
G1 X159.776 Y102.602 E809.56624
G1 F2091.1 X159.829 Y103.163 E809.57224
G1 F1830.6 X159.83 Y110.353 E809.65846
G1 F2070.7 X159.773 Y111.103 E809.66654
G1 F2400 X159.773 Y112.11 E809.67601
G1 X159.722 Y112.345 E809.67828
G1 X159.517 Y112.592 E809.6813
G1 X159.176 Y112.7 E809.68466
G1 X158.501 Y112.702 E809.69101
G1 X158.472 Y113.209 E809.69578
G1 F1906.3 X158.519 Y114 E809.70495
G1 F1531.8 X158.403 Y115.954 E809.73238
G1 F1457.7 X158.117 Y116.239 E809.73829
G1 F1423 X158.106 Y116.438 E809.74126
G1 X158.939 Y116.484 E809.75372
G1 F1485.5 X158.994 Y115.889 E809.76232
G1 F1559 X159.101 Y114.032 E809.78799
G1 F1906.3 X159.381 Y113.634 E809.79362
G1 F2400 X159.564 Y113.516 E809.79567
G1 X159.793 Y113.471 E809.79786
G1 X170.207 Y113.47 E809.89581
G1 X170.436 Y113.514 E809.898
G1 X170.619 Y113.634 E809.90006
M204 S3500
G0 F9000 X171.021 Y113.3
G1 F2700 E803.40006
G0 F9000 X171.862 Y115.847
G0 X178.114 Y119.359
G0 X178.758 Y121.371
;TYPE:FILL
G1 F900 E809.90006
G1 F2375.9 X178.726 Y122.242 E809.90926
G1 F2352.5 X178.663 Y123.195 E809.91944
G1 F2341 X178.605 Y123.812 E809.92607
G1 F2312.6 X178.474 Y124.839 E809.93726
G1 F2263 X178.321 Y125.775 E809.94772
G1 F2231.1 X178.125 Y126.731 E809.95862
G1 F2215.4 X177.993 Y127.303 E809.96522
G1 F1980 X177.846 Y127.673 E809.97016
G1 F2312.6 X177.916 Y128.012 E809.97391
G1 F3224.1 X177.89 Y128.376 E809.97683
G1 F2700 E803.47683
G0 F9000 X177.863 Y128.369
G0 X176.623 Y128.458
G0 X152.203 Y128.585
G1 F900 E809.97683
G0 F9000 X152.178 Y128.592
G1 F2677.9 X152.111 Y128.311 E809.97956
G1 F1975.7 X152.175 Y127.752 E809.98656
G1 F1938.2 X152.03 Y127.417 E809.99118
G1 F2179.5 X151.877 Y126.747 E809.99902
G1 F2236.3 X151.705 Y125.914 E810.0085
G1 F2252.3 X151.6 Y125.329 E810.01508
G1 F2231.1 X151.463 Y124.389 E810.02569
G1 F2295.9 X151.398 Y123.852 E810.03158
G1 F2312.6 X151.3 Y122.744 E810.04361
G1 F2290.3 X151.237 Y121.283 E810.05956
G0 F9000 X151.889 Y125.846
G0 X152.295 Y127.493
G0 X153.204 Y128.355
G0 X157.43 Y129.401
G1 F2700 X169.427 Y141.398 E810.21913
G1 X169.033 Y141.739 E810.22404
G1 X168.454 Y142.205 E810.23103
G1 X167.66 Y142.804 E810.24038
G1 X166.84 Y143.377 E810.24979
G1 X166.358 Y143.689 E810.25519
G1 X166.125 Y143.394 E810.25873
G1 X165.783 Y143.276 E810.26213
G1 X165.681 Y143.31 E810.26314
G1 X152.983 Y130.611 E810.43204
G1 X153.39 Y131.608 E810.44217
G1 X155.508 Y129.491 E810.47034
G1 X157.273 Y129.494 E810.48694
G1 X157.522 Y129.347 E810.48966
G1 X157.963 Y128.892 E810.49562
G1 X158.011 Y128.067 E810.50339
G1 X158.055 Y127.782 E810.5061
G1 X158.107 Y126.892 E810.51449
G1 X158.382 Y126.616 E810.51815
G1 X158.502 Y126.738 E810.51976
G1 X158.99 Y126.956 E810.52479
G1 X160.641 Y126.956 E810.54031
G1 X172.268 Y138.583 E810.69497
G1 X173.208 Y137.416 E810.70906
G1 X173.79 Y136.62 E810.71833
G1 X174.355 Y135.794 E810.72775
G1 X174.658 Y135.316 E810.73307
G1 X166.298 Y126.956 E810.84427
G1 X163.7 Y126.956 E810.8687
G1 X155.333 Y135.323 E810.97999
G1 X155.766 Y135.981 E810.9874
G1 X156.223 Y136.642 E810.99496
G1 X156.827 Y137.455 E811.00448
G1 X157.726 Y138.586 E811.01807
G1 X169.357 Y126.956 E811.17277
G1 X171.011 Y126.956 E811.18833
G1 X171.504 Y126.734 E811.19341
G1 X171.614 Y126.615 E811.19494
G1 X171.887 Y126.888 E811.19857
G1 X171.944 Y127.825 E811.2074
G1 X171.987 Y128.058 E811.20962
G1 X172.033 Y128.842 E811.21701
G1 X172.197 Y129.085 E811.21977
G1 X172.568 Y129.401 E811.22435
G1 X160.567 Y141.402 E811.38398
G1 X161.577 Y142.237 E811.3963
G1 X162.529 Y142.939 E811.40743
G1 X162.978 Y143.252 E811.41258
G1 X163.756 Y143.761 E811.42132
G1 X163.871 Y143.582 E811.42332
G1 X164.192 Y143.434 E811.42665
G1 X176.998 Y130.628 E811.59698
G1 X176.616 Y131.617 E811.60695
G1 X174.49 Y129.491 E811.63523
G1 X176.453 Y129.489 E811.65369
G1 X176.764 Y129.427 E811.65667
G1 X177.355 Y129.163 E811.66276
G1 X177.566 Y129.011 E811.66521
G1 X177.239 Y130.008 E811.67508
M204 S1500
G1 F2700 E805.17508
G0 F9000 X158.786 Y126.793
G0 X158.232 Y125.944
G1 F900 E811.67508
G0 F9000 X158.934 Y125.983
;TYPE:WALL-OUTER
G1 F1800 X158.994 Y124.835 E811.68589
G1 X157.125 Y124.736 E811.70349
G1 X157.066 Y125.817 E811.71367
G1 X157.291 Y125.881 E811.71587
G1 X157.352 Y126.001 E811.71714
G1 X157.262 Y127.673 E811.73289
G1 X157.101 Y127.846 E811.73511
G1 X153.712 Y127.846 E811.76699
G1 X153.417 Y127.746 E811.76991
G1 X153.087 Y127.504 E811.77376
G1 X152.818 Y127.099 E811.77834
G1 X152.529 Y125.786 E811.79098
G1 X152.336 Y124.629 E811.80201
G1 X152.219 Y123.736 E811.81048
G1 X152.142 Y122.877 E811.8186
G1 X152.099 Y122.214 E811.82484
G1 X152.069 Y121.344 E811.83303
G1 X152.069 Y120.409 E811.84183
G1 X152.107 Y119.387 E811.85144
G1 X152.171 Y118.536 E811.85947
G1 X152.732 Y113.298 E811.90902
G1 X152.732 Y112.832 E811.9134
G1 X151.401 Y112.829 E811.92592
G1 X151.303 Y113.039 E811.9281
G1 X151.159 Y113.608 E811.93362
G1 X150.849 Y115.443 E811.95112
G1 X150.295 Y118.582 E811.9811
G1 X150.185 Y119.268 E811.98764
G1 X150 Y120.565 E811.99996
G1 X150.06 Y120.903 E812.00319
G1 X150.256 Y121.001 E812.00525
G1 X150.412 Y121.361 E812.00894
G1 X150.472 Y122.808 E812.02256
G1 X150.555 Y123.774 E812.03168
G1 X150.637 Y124.5 E812.03855
G1 X150.776 Y125.489 E812.04794
G1 X150.951 Y126.425 E812.0569
G1 X151.057 Y126.939 E812.06184
G1 X151.237 Y127.707 E812.06925
G1 X151.421 Y128.399 E812.07599
G1 X151.631 Y129.124 E812.08309
G1 X151.784 Y129.605 E812.08784
G1 X152.035 Y130.337 E812.09511
G1 X152.375 Y131.238 E812.10417
G1 X152.76 Y132.178 E812.11372
G1 X153.23 Y133.177 E812.12411
G1 X153.583 Y133.875 E812.13146
G1 X154.175 Y134.946 E812.14297
G1 X154.603 Y135.654 E812.15076
G1 X155.133 Y136.474 E812.15994
G1 X155.574 Y137.111 E812.16723
G1 X156.19 Y137.94 E812.17694
G1 X156.888 Y138.814 E812.18746
G1 X157.686 Y139.719 E812.19881
G1 X158.037 Y140.096 E812.20365
G1 X158.579 Y140.651 E812.21095
G1 X158.949 Y141.012 E812.21581
G1 X159.513 Y141.537 E812.22306
G1 X160.092 Y142.047 E812.23031
G1 X160.887 Y142.704 E812.24001
G1 X161.288 Y143.017 E812.2448
G1 X162.111 Y143.624 E812.25442
G1 X162.529 Y143.915 E812.25921
G1 X163.201 Y144.357 E812.26677
G1 X163.813 Y144.74 E812.27356
G1 X164.51 Y145.144 E812.28114
G1 X165.215 Y145.183 E812.28778
G1 X165.635 Y145.075 E812.29186
G1 X166.686 Y144.431 E812.30345
G1 X167.291 Y144.038 E812.31024
G1 X168.126 Y143.455 E812.31982
G1 X168.945 Y142.838 E812.32946
G1 X169.543 Y142.357 E812.33668
G1 X170.321 Y141.687 E812.34633
G1 X171.079 Y140.987 E812.35604
G1 X171.447 Y140.627 E812.36088
G1 X172.162 Y139.884 E812.37058
G1 X172.682 Y139.31 E812.37786
G1 X173.184 Y138.721 E812.38514
G1 X173.67 Y138.118 E812.39243
G1 X173.986 Y137.707 E812.3973
G1 X174.442 Y137.085 E812.40456
G1 X175.025 Y136.231 E812.41428
G1 X175.578 Y135.36 E812.42399
G1 X175.84 Y134.919 E812.42881
G1 X176.339 Y134.02 E812.43848
G1 X176.577 Y133.564 E812.44332
G1 X177.025 Y132.643 E812.45295
G1 X177.232 Y132.181 E812.45771
G1 X177.53 Y131.475 E812.46492
G1 X177.893 Y130.537 E812.47438
G1 X178.074 Y130.032 E812.47942
G1 X178.31 Y129.313 E812.48654
G1 X178.517 Y128.63 E812.49325
G1 X178.781 Y127.624 E812.50304
G1 X178.95 Y126.893 E812.51009
G1 X179.144 Y125.917 E812.51945
G1 X179.303 Y124.943 E812.52873
G1 X179.396 Y124.227 E812.53552
G1 X179.492 Y123.243 E812.54482
G1 X179.552 Y122.292 E812.55379
G1 X179.581 Y121.479 E812.56144
G1 X179.758 Y120.99 E812.56633
G1 X179.932 Y120.908 E812.56814
G1 X179.972 Y120.542 E812.5716
G1 X179.982 Y120.45 E812.57247
G1 X179.866 Y119.599 E812.58055
G1 X179.703 Y118.57 E812.59035
G1 X179.394 Y116.839 E812.60689
G1 X178.824 Y113.498 E812.63876
G1 X178.585 Y112.83 E812.64544
G1 X177.297 Y112.832 E812.65755
G1 X177.259 Y113.252 E812.66152
G1 X177.807 Y118.31 E812.70937
G1 X177.896 Y119.375 E812.71942
G1 X177.932 Y120.472 E812.72974
G1 X177.932 Y121.343 E812.73793
G1 X177.901 Y122.221 E812.7462
G1 X177.858 Y122.883 E812.75243
G1 X177.78 Y123.748 E812.7606
G1 X177.662 Y124.636 E812.76903
G1 X177.513 Y125.545 E812.77769
G1 X177.381 Y126.212 E812.78409
G1 X177.2 Y127.001 E812.7917
G1 X176.916 Y127.508 E812.79717
G1 X176.574 Y127.751 E812.80111
G1 X176.253 Y127.84 E812.80425
G1 X172.898 Y127.846 E812.8358
G1 X172.739 Y127.686 E812.83792
G1 X172.648 Y125.99 E812.8539
G1 X172.71 Y125.867 E812.85519
G1 X172.934 Y125.808 E812.85737
G1 X172.874 Y124.735 E812.86748
G1 X171.006 Y124.834 E812.88507
G1 X171.067 Y125.981 E812.89587
G1 X170.997 Y126.11 E812.89725
G1 X170.897 Y126.155 E812.89829
G1 X159.103 Y126.155 E813.00921
G1 X158.934 Y125.983 E813.01148
G0 F9000 X158.944 Y125.784
G0 X158.243 Y125.745
G0 X157.881 Y128.014
G0 X157.359 Y128.168
;TYPE:WALL-INNER
G1 F2400 X157.17 Y128.246 E813.0134
G1 X153.637 Y128.246 E813.04663
G1 X153.204 Y128.084 E813.05098
G1 X152.782 Y127.763 E813.05597
G1 X152.447 Y127.275 E813.06153
G1 X152.136 Y125.864 E813.07512
G1 X151.939 Y124.681 E813.0864
G1 X151.821 Y123.772 E813.09502
G1 X151.743 Y122.903 E813.10323
G1 X151.699 Y122.228 E813.10959
G1 X151.669 Y121.358 E813.11778
G1 X151.669 Y120.394 E813.12685
G1 X151.708 Y119.357 E813.13661
G1 X151.773 Y118.494 E813.14475
G1 X152.138 Y115.068 E813.17715
G1 F1889 X152.086 Y114.66 E813.18195
G1 F1602.9 X152.251 Y113.307 E813.20031
G1 F1635.7 X151.693 Y113.307 E813.2077
G1 F1571.3 X151.498 Y114.58 E813.22535
G1 F1889 X151.338 Y114.957 E813.23013
G1 F2400 X150.69 Y118.646 E813.26536
G1 X150.581 Y119.324 E813.27182
G1 X150.398 Y120.605 E813.28399
G1 X150.571 Y120.753 E813.28613
G1 X150.812 Y121.345 E813.29214
G1 X150.87 Y122.774 E813.30559
G1 X150.953 Y123.73 E813.31462
G1 X151.033 Y124.445 E813.32138
G1 X151.169 Y125.415 E813.33059
G1 X151.343 Y126.345 E813.33949
G1 X151.447 Y126.848 E813.34432
G1 X151.623 Y127.606 E813.35164
G1 X151.805 Y128.287 E813.35827
G1 X152.076 Y129.222 E813.36743
G1 X152.409 Y130.196 E813.37711
G1 X152.747 Y131.092 E813.38612
G1 X153.125 Y132.013 E813.39548
G1 X153.568 Y132.957 E813.40529
G1 X153.909 Y133.636 E813.41243
G1 X154.427 Y134.589 E813.42264
G1 X154.941 Y135.44 E813.43199
G1 X155.465 Y136.25 E813.44106
G1 X155.899 Y136.878 E813.44824
G1 X156.507 Y137.696 E813.45783
G1 X156.984 Y138.295 E813.46503
G1 X157.307 Y138.684 E813.46978
G1 X158.105 Y139.591 E813.48114
G1 X158.862 Y140.368 E813.49135
G1 X159.225 Y140.722 E813.49612
G1 X159.781 Y141.241 E813.50327
G1 X160.352 Y141.743 E813.51042
G1 X161.316 Y142.54 E813.52218
G1 X162.543 Y143.446 E813.53653
G1 X163.413 Y144.018 E813.54632
G1 X164.019 Y144.397 E813.55305
G1 X164.627 Y144.749 E813.55965
G1 X165.175 Y144.78 E813.56482
G1 X165.477 Y144.703 E813.56775
G1 X166.408 Y144.133 E813.57801
G1 X167.067 Y143.706 E813.5854
G1 X167.891 Y143.131 E813.59485
G1 X168.699 Y142.522 E813.60437
G1 X169.287 Y142.049 E813.61146
G1 X170.055 Y141.389 E813.62099
