;START_OF_HEADER
;HEADER_VERSION:0.1
;FLAVOR:Griffin
;GENERATOR.NAME:Cura_SteamEngine
;GENERATOR.VERSION:5.2.2
;GENERATOR.BUILD_DATE:2023-01-24
;TARGET_MACHINE.NAME:Ultimaker S5
;EXTRUDER_TRAIN.0.INITIAL_TEMPERATURE:130
;EXTRUDER_TRAIN.0.MATERIAL.VOLUME_USED:10605
;EXTRUDER_TRAIN.0.MATERIAL.GUID:0b4ca6ef-eac8-4b23-b3ca-5f21af00e54f
;EXTRUDER_TRAIN.0.NOZZLE.DIAMETER:0.4
;EXTRUDER_TRAIN.0.NOZZLE.NAME:AA 0.4
;EXTRUDER_TRAIN.1.INITIAL_TEMPERATURE:245
;EXTRUDER_TRAIN.1.MATERIAL.VOLUME_USED:2529
;EXTRUDER_TRAIN.1.MATERIAL.GUID:2f9d2279-9b0e-4765-bf9b-d1e1e13f3c49
;EXTRUDER_TRAIN.1.NOZZLE.DIAMETER:0.4
;EXTRUDER_TRAIN.1.NOZZLE.NAME:AA 0.4
;BUILD_PLATE.INITIAL_TEMPERATURE:85
;BUILD_VOLUME.TEMPERATURE:36
;PRINT.TIME:8928
;PRINT.GROUPS:1
;PRINT.SIZE.MIN.X:85.2
;PRINT.SIZE.MIN.Y:44.023
;PRINT.SIZE.MIN.Z:0.2
;PRINT.SIZE.MAX.X:330
;PRINT.SIZE.MAX.Y:237
;PRINT.SIZE.MAX.Z:48.05
;SLICE_UUID:077e13d1-2be6-4c1e-aa96-0a7ecbca4e97
;END_OF_HEADER
;Generated with Cura_SteamEngine 5.2.2
T1
M82 ;absolute extrusion mode

G92 E0
M109 S245
G280 S1
G0 Z20.001
G1 F2700 E-6.5
;LAYER_COUNT:241
;LAYER:0
M106 S5.1
M204 S1000
M205 X20 Y20
G1 F600 Z2.2
G0 F9000 X191.009 Y154.246 Z2.2
;TYPE:SKIRT
G1 F600 Z0.2
G1 F900 E0
G1 F1350 X190.702 Y154.734 E0.00723
G1 X189.47 Y156.599 E0.03526
G1 X189.067 Y157.18 E0.04413
G1 X187.525 Y159.283 E0.07683
G1 X187.093 Y159.841 E0.08568
G1 X185.654 Y161.614 E0.11431
G1 X185.228 Y162.115 E0.12256
G1 X183.756 Y163.77 E0.15034
G1 X183.238 Y164.327 E0.15988
G1 X181.536 Y166.07 E0.19043
G1 X181.136 Y166.46 E0.19743
G1 X179.509 Y167.977 E0.22533
G1 X178.855 Y168.56 E0.23631
G1 X176.979 Y170.151 E0.26716
G1 X176.514 Y170.526 E0.27465
G1 X174.995 Y171.704 E0.29876
G1 X174.576 Y172.016 E0.30531
G1 X172.985 Y173.152 E0.32983
G1 X172.359 Y173.581 E0.33934
G1 X170.69 Y174.676 E0.36437
G1 X169.777 Y175.236 E0.37781
G1 X169.055 Y175.668 E0.38836
G1 X167.322 Y176.659 E0.41339
G1 X165.551 Y177.579 E0.43842
G1 X163.744 Y178.427 E0.46345
G1 X161.905 Y179.202 E0.48848
G1 X160.036 Y179.903 E0.51351
G1 X158.141 Y180.529 E0.53854
G1 X156.222 Y181.078 E0.56357
G1 X153.342 Y181.754 E0.60066
G1 X151.132 Y182.163 E0.62885
G1 X149.156 Y182.447 E0.65388
G1 X147.171 Y182.651 E0.67891
G1 X145.179 Y182.776 E0.70394
G1 X143.184 Y182.821 E0.72896
G1 X140.216 Y182.74 E0.76619
G1 X137.964 Y182.571 E0.79452
G1 X135.981 Y182.337 E0.81956
G1 X134.01 Y182.024 E0.84458
G1 X132.053 Y181.633 E0.86961
G1 X130.113 Y181.163 E0.89464
G1 X128.194 Y180.616 E0.91966
G1 X126.397 Y180.032 E0.94336
G1 X124.352 Y179.282 E0.97067
G1 X122.507 Y178.521 E0.9957
G1 X120.694 Y177.686 E1.02073
G1 X118.916 Y176.779 E1.04576
G1 X116.82 Y175.591 E1.07598
G1 X116.201 Y175.22 E1.08503
G1 X114.51 Y174.16 E1.11005
G1 X113.54 Y173.508 E1.12471
G1 X112.745 Y172.96 E1.13682
G1 X111.124 Y171.794 E1.16186
G1 X110.132 Y171.03 E1.17756
G1 X109.355 Y170.416 E1.18998
G1 X107.247 Y168.654 E1.22444
G1 X106.79 Y168.25 E1.23208
G1 X105.432 Y167.003 E1.2552
G1 X105.055 Y166.644 E1.26173
G1 X103.729 Y165.334 E1.28511
G1 X103.121 Y164.71 E1.29603
G1 X101.757 Y163.253 E1.32106
G1 X100.485 Y161.782 E1.34545
G1 X99.866 Y161.037 E1.3576
G1 X98.306 Y159.059 E1.38919
G1 X97.865 Y158.47 E1.39841
G1 X96.51 Y156.569 E1.42769
G1 X96.032 Y155.864 E1.43837
G1 X94.945 Y154.19 E1.4634
G1 X94.025 Y152.646 E1.48594
G1 X93.402 Y151.557 E1.50167
G1 X92.446 Y149.805 E1.5267
G1 X91.481 Y147.846 E1.55409
G1 X91.096 Y147.019 E1.56553
G1 X90.208 Y144.997 E1.59322
G1 X89.96 Y144.396 E1.60137
G1 X89.068 Y142.069 E1.63263
G1 X88.727 Y141.109 E1.6454
G1 X88.096 Y139.215 E1.67044
G1 X87.643 Y137.669 E1.69064
G1 X87.438 Y136.925 E1.70032
G1 X86.958 Y135.041 E1.7247
G1 X86.783 Y134.293 E1.73433
G1 X86.368 Y132.341 E1.75936
G1 X86.084 Y130.72 E1.78
G1 X85.932 Y129.758 E1.79221
G1 X85.577 Y127.021 E1.82682
G1 X85.489 Y126.155 E1.83773
G1 X85.286 Y123.398 E1.8724
G1 X85.249 Y122.59 E1.88255
G1 X85.2 Y119.764 E1.91799
G1 X85.209 Y118.946 E1.92825
G1 X85.297 Y116.481 E1.95918
G1 X86.744 Y92.607 E2.25912
G1 X86.905 Y90.618 E2.28414
G1 X87.145 Y88.636 E2.30918
G1 X87.465 Y86.666 E2.33421
G1 X87.863 Y84.71 E2.35924
G1 X88.339 Y82.772 E2.38427
G1 X88.892 Y80.855 E2.40929
G1 X89.346 Y79.466 E2.42761
G1 X89.537 Y78.909 E2.43499
G1 X90.222 Y77.035 E2.46002
G1 X90.981 Y75.189 E2.48505
G1 X91.814 Y73.375 E2.51008
G1 X92.719 Y71.597 E2.5351
G1 X93.695 Y69.855 E2.56014
G1 X94.74 Y68.155 E2.58516
G1 X95.851 Y66.497 E2.61019
G1 X97.223 Y64.633 E2.63921
G1 X97.531 Y64.234 E2.64554
G1 X98.782 Y62.678 E2.67057
G1 X100.094 Y61.175 E2.69559
G1 X101.466 Y59.725 E2.72063
G1 X102.894 Y58.331 E2.74565
G1 X104.377 Y56.995 E2.77068
G1 X105.913 Y55.72 E2.79572
G1 X107.494 Y54.506 E2.82071
G1 X109.256 Y53.258 E2.84779
G1 X110.929 Y52.17 E2.87282
G1 X112.645 Y51.15 E2.89785
G1 X114.4 Y50.2 E2.92288
G1 X116.192 Y49.321 E2.94791
G1 X118.777 Y48.198 E2.98325
G1 X120.895 Y47.392 E3.01167
G1 X122.787 Y46.758 E3.03669
G1 X124.703 Y46.199 E3.06172
G1 X126.641 Y45.719 E3.08676
G1 X128.595 Y45.316 E3.11178
G1 X131.484 Y44.862 E3.14845
G1 X133.734 Y44.617 E3.17683
G1 X135.725 Y44.481 E3.20186
G1 X138.146 Y44.423 E3.23223
G1 X148 Y44.427 E3.3558
G1 X149.996 Y44.468 E3.38084
G1 X151.988 Y44.589 E3.40586
G1 X153.974 Y44.789 E3.4309
G1 X155.968 Y45.068 E3.45614
G1 X158.1 Y45.45 E3.48331
G1 X160.049 Y45.881 E3.50834
G1 X161.979 Y46.389 E3.53337
G1 X163.887 Y46.974 E3.55839
G1 X165.771 Y47.636 E3.58343
G1 X167.355 Y48.257 E3.60477
G1 X169.191 Y49.038 E3.62979
G1 X170.995 Y49.893 E3.65483
G1 X172.763 Y50.82 E3.67986
G1 X174.492 Y51.816 E3.70488
G1 X176.18 Y52.881 E3.72991
G1 X178.494 Y54.498 E3.76531
G1 X180.234 Y55.838 E3.79285
G1 X181.764 Y57.119 E3.81788
G1 X183.242 Y58.46 E3.8429
G1 X184.666 Y59.86 E3.86795
G1 X186.032 Y61.315 E3.89297
G1 X187.914 Y63.519 E3.92932
G1 X189.291 Y65.297 E3.95752
G1 X190.45 Y66.922 E3.98255
G1 X191.542 Y68.593 E4.00758
G1 X192.567 Y70.306 E4.03262
G1 X193.522 Y72.058 E4.05764
G1 X194.406 Y73.848 E4.08267
G1 X195.217 Y75.671 E4.1077
G1 X196.14 Y78.026 E4.13942
G1 X196.362 Y78.638 E4.14758
G1 X197.005 Y80.528 E4.17262
G1 X197.572 Y82.441 E4.19764
G1 X198.061 Y84.376 E4.22267
G1 X198.473 Y86.329 E4.2477
G1 X198.806 Y88.297 E4.27273
G1 X199.06 Y90.277 E4.29776
G1 X199.255 Y92.6 E4.32699
G1 X200.71 Y116.552 E4.62791
G1 X200.802 Y119.502 E4.66493
G1 X200.803 Y120.218 E4.6739
G1 X200.774 Y121.976 E4.69595
G1 X200.751 Y122.654 E4.70446
G1 X200.579 Y125.436 E4.73941
G1 X200.495 Y126.368 E4.75115
G1 X200.276 Y128.352 E4.77618
G1 X200.039 Y129.958 E4.79654
G1 X199.895 Y130.836 E4.8077
G1 X199.499 Y132.963 E4.83483
G1 X199.378 Y133.542 E4.84225
G1 X198.983 Y135.277 E4.86456
G1 X198.857 Y135.788 E4.87116
G1 X198.353 Y137.672 E4.89562
G1 X198.192 Y138.23 E4.9029
G1 X197.656 Y139.967 E4.9257
G1 X197.406 Y140.728 E4.93574
G1 X196.746 Y142.611 E4.96076
G1 X196.136 Y144.164 E4.98169
G1 X195.805 Y144.967 E4.99258
G1 X194.969 Y146.88 E5.01876
G1 X194.737 Y147.382 E5.02569
G1 X193.74 Y149.416 E5.0541
G1 X193.349 Y150.17 E5.06475
G1 X192.13 Y152.381 E5.09641
G1 X191.847 Y152.865 E5.10344
G1 X191.009 Y154.246 E5.1237
G0 F9000 X190.671 Y154.033
G1 F1350 X190.364 Y154.521 E5.13093
G1 X189.141 Y156.371 E5.15874
G1 X188.738 Y156.952 E5.16761
G1 X187.209 Y159.038 E5.20004
G1 X186.777 Y159.596 E5.20889
G1 X185.349 Y161.355 E5.23731
G1 X184.923 Y161.856 E5.24555
G1 X183.464 Y163.498 E5.2731
G1 X182.946 Y164.055 E5.28264
G1 X181.257 Y165.783 E5.31294
G1 X180.857 Y166.173 E5.31994
G1 X179.243 Y167.678 E5.34762
G1 X178.589 Y168.261 E5.35861
G1 X176.728 Y169.84 E5.38921
G1 X176.263 Y170.215 E5.3967
G1 X174.756 Y171.383 E5.42061
G1 X174.337 Y171.695 E5.42716
G1 X172.759 Y172.822 E5.45148
G1 X172.133 Y173.251 E5.461
G1 X170.471 Y174.342 E5.48593
G1 X168.849 Y175.325 E5.50971
G1 X167.123 Y176.311 E5.53464
G1 X165.359 Y177.227 E5.55957
G1 X163.559 Y178.071 E5.5845
G1 X161.727 Y178.842 E5.60942
G1 X159.865 Y179.539 E5.63436
G1 X157.977 Y180.161 E5.65928
G1 X156.065 Y180.705 E5.68421
G1 X153.258 Y181.363 E5.72037
G1 X151.059 Y181.769 E5.74841
G1 X149.091 Y182.052 E5.77334
G1 X147.114 Y182.255 E5.79827
G1 X145.13 Y182.378 E5.82319
G1 X143.143 Y182.421 E5.84812
G1 X140.238 Y182.34 E5.88456
G1 X137.994 Y182.172 E5.91278
G1 X136.02 Y181.939 E5.93771
G1 X134.057 Y181.626 E5.96264
G1 X132.108 Y181.235 E5.98756
G1 X130.176 Y180.766 E6.0125
G1 X128.265 Y180.219 E6.03742
G1 X126.524 Y179.653 E6.06038
G1 X124.49 Y178.906 E6.08755
G1 X122.652 Y178.148 E6.11248
G1 X120.847 Y177.316 E6.13741
G1 X119.077 Y176.412 E6.16233
G1 X117.026 Y175.248 E6.19191
G1 X116.407 Y174.877 E6.20096
G1 X114.723 Y173.821 E6.22588
G1 X113.767 Y173.178 E6.24033
G1 X112.972 Y172.63 E6.25244
G1 X111.358 Y171.469 E6.27737
G1 X110.38 Y170.716 E6.29285
G1 X109.603 Y170.102 E6.30527
G1 X107.512 Y168.354 E6.33945
G1 X107.055 Y167.95 E6.3471
G1 X105.707 Y166.714 E6.37003
G1 X105.33 Y166.355 E6.37656
G1 X104.015 Y165.055 E6.39975
G1 X103.407 Y164.431 E6.41067
G1 X102.049 Y162.979 E6.43561
G1 X100.793 Y161.526 E6.45969
G1 X100.174 Y160.781 E6.47184
G1 X98.626 Y158.819 E6.50318
G1 X98.185 Y158.23 E6.5124
G1 X96.841 Y156.345 E6.54144
G1 X96.363 Y155.64 E6.55212
G1 X95.281 Y153.972 E6.57705
G1 X94.372 Y152.447 E6.59931
G1 X93.749 Y151.358 E6.61505
G1 X92.797 Y149.613 E6.63998
G1 X91.843 Y147.677 E6.66704
G1 X91.458 Y146.85 E6.67848
G1 X90.578 Y144.844 E6.70595
G1 X90.33 Y144.243 E6.7141
G1 X89.444 Y141.935 E6.74511
G1 X89.103 Y140.975 E6.75788
G1 X88.476 Y139.089 E6.78281
G1 X88.029 Y137.563 E6.80275
G1 X87.824 Y136.819 E6.81242
G1 X87.348 Y134.95 E6.83661
G1 X87.173 Y134.202 E6.84624
G1 X86.759 Y132.257 E6.87118
G1 X86.479 Y130.658 E6.89154
G1 X86.327 Y129.696 E6.90375
G1 X85.975 Y126.98 E6.9381
G1 X85.887 Y126.114 E6.94901
G1 X85.686 Y123.38 E6.98339
G1 X85.649 Y122.572 E6.99353
G1 X85.6 Y119.769 E7.02869
G1 X85.609 Y118.951 E7.03895
G1 X85.696 Y116.505 E7.06964
G1 X87.143 Y92.631 E7.36958
G1 X87.304 Y90.65 E7.3945
G1 X87.543 Y88.677 E7.41943
G1 X87.862 Y86.714 E7.44437
G1 X88.26 Y84.767 E7.46929
G1 X88.736 Y82.837 E7.49422
G1 X89.289 Y80.927 E7.51915
G1 X89.724 Y79.596 E7.53671
G1 X89.915 Y79.039 E7.5441
G1 X90.598 Y77.172 E7.56903
G1 X91.355 Y75.334 E7.59395
G1 X92.185 Y73.528 E7.61888
G1 X93.087 Y71.757 E7.6438
G1 X94.06 Y70.023 E7.66874
G1 X95.102 Y68.33 E7.69367
G1 X96.211 Y66.681 E7.71859
G1 X97.539 Y64.877 E7.74668
G1 X97.847 Y64.478 E7.753
G1 X99.094 Y62.929 E7.77794
G1 X100.401 Y61.432 E7.80286
G1 X101.768 Y59.988 E7.82779
G1 X103.191 Y58.601 E7.85271
G1 X104.669 Y57.272 E7.87764
G1 X106.2 Y56.003 E7.90258
G1 X107.734 Y54.827 E7.92682
G1 X109.487 Y53.585 E7.95376
G1 X111.154 Y52.502 E7.97869
G1 X112.863 Y51.487 E8.00361
G1 X114.612 Y50.541 E8.02855
G1 X116.397 Y49.667 E8.05347
G1 X118.929 Y48.568 E8.08809
G1 X121.037 Y47.766 E8.11637
G1 X122.922 Y47.135 E8.1413
G1 X124.831 Y46.579 E8.16623
G1 X126.76 Y46.101 E8.19116
G1 X128.708 Y45.702 E8.21609
G1 X131.538 Y45.259 E8.25201
G1 X133.777 Y45.015 E8.28026
G1 X135.76 Y44.88 E8.30518
G1 X138.146 Y44.823 E8.33511
G1 X148 Y44.827 E8.45868
G1 X149.987 Y44.868 E8.48361
G1 X151.972 Y44.989 E8.50855
G1 X153.949 Y45.189 E8.53347
G1 X155.906 Y45.463 E8.55825
G1 X158.03 Y45.844 E8.58531
G1 X159.971 Y46.273 E8.61024
G1 X161.893 Y46.78 E8.63516
G1 X163.793 Y47.364 E8.66009
G1 X165.668 Y48.024 E8.68502
G1 X167.205 Y48.628 E8.70573
G1 X169.034 Y49.407 E8.73066
G1 X170.831 Y50.258 E8.75559
G1 X172.591 Y51.182 E8.78052
G1 X174.313 Y52.175 E8.80545
G1 X175.993 Y53.237 E8.83037
G1 X178.258 Y54.821 E8.86503
G1 X179.989 Y56.155 E8.89244
G1 X181.514 Y57.431 E8.91737
G1 X182.985 Y58.768 E8.9423
G1 X184.402 Y60.162 E8.96723
G1 X185.761 Y61.612 E8.99215
G1 X187.602 Y63.771 E9.02773
G1 X188.975 Y65.542 E9.05583
G1 X190.128 Y67.161 E9.08076
G1 X191.216 Y68.825 E9.10569
G1 X192.235 Y70.532 E9.13062
G1 X193.185 Y72.278 E9.15555
G1 X194.064 Y74.061 E9.18047
G1 X194.871 Y75.878 E9.20541
G1 X195.764 Y78.162 E9.23616
G1 X195.986 Y78.774 E9.24432
G1 X196.626 Y80.656 E9.26925
G1 X197.19 Y82.563 E9.29419
G1 X197.677 Y84.49 E9.31912
G1 X198.086 Y86.435 E9.34404
G1 X198.416 Y88.396 E9.36898
G1 X198.667 Y90.368 E9.39391
G1 X198.856 Y92.625 E9.42231
G1 X200.311 Y116.577 E9.72323
G1 X200.402 Y119.503 E9.75994
G1 X200.403 Y120.219 E9.76892
G1 X200.375 Y121.963 E9.79079
G1 X200.352 Y122.641 E9.7993
G1 X200.181 Y125.4 E9.83397
G1 X200.097 Y126.332 E9.8457
G1 X199.878 Y128.308 E9.87063
G1 X199.645 Y129.893 E9.89072
G1 X199.501 Y130.771 E9.90188
G1 X199.107 Y132.881 E9.9288
G1 X198.986 Y133.46 E9.93622
G1 X198.594 Y135.182 E9.95836
G1 X198.468 Y135.693 E9.96496
G1 X197.969 Y137.561 E9.98921
G1 X197.808 Y138.119 E9.99649
G1 X197.276 Y139.842 E10.01911
G1 X197.026 Y140.603 E10.02915
G1 X196.368 Y142.479 E10.05408
G1 X195.766 Y144.011 E10.07472
G1 X195.435 Y144.814 E10.08562
G1 X194.606 Y146.712 E10.11159
G1 X194.374 Y147.214 E10.11852
G1 X193.385 Y149.231 E10.14669
G1 X192.994 Y149.985 E10.15735
G1 X191.785 Y152.179 E10.18876
G1 X191.502 Y152.663 E10.19579
G1 X190.671 Y154.033 E10.21588
G0 F9000 X190.332 Y153.82
G1 F1350 X190.025 Y154.308 E10.22311
G1 X188.812 Y156.143 E10.2507
G1 X188.409 Y156.724 E10.25957
G1 X186.892 Y158.793 E10.29174
G1 X186.46 Y159.351 E10.30059
G1 X185.045 Y161.096 E10.32876
G1 X184.619 Y161.597 E10.33701
G1 X183.171 Y163.225 E10.36433
G1 X182.653 Y163.782 E10.37387
G1 X180.978 Y165.497 E10.40393
G1 X180.578 Y165.887 E10.41094
G1 X178.977 Y167.38 E10.43839
G1 X178.323 Y167.963 E10.44938
G1 X176.477 Y169.528 E10.47973
G1 X176.012 Y169.903 E10.48722
G1 X174.517 Y171.062 E10.51094
G1 X174.098 Y171.374 E10.51749
G1 X172.533 Y172.492 E10.54161
G1 X171.907 Y172.921 E10.55113
G1 X170.251 Y174.007 E10.57596
G1 X169.366 Y174.55 E10.58898
G1 X168.644 Y174.982 E10.59953
G1 X166.925 Y175.964 E10.62436
G1 X165.167 Y176.876 E10.6492
G1 X163.375 Y177.716 E10.67401
G1 X161.549 Y178.483 E10.69885
G1 X159.695 Y179.175 E10.72367
G1 X157.814 Y179.792 E10.74849
G1 X155.909 Y180.333 E10.77333
G1 X153.175 Y180.971 E10.80853
G1 X150.987 Y181.376 E10.83644
G1 X149.027 Y181.657 E10.86127
G1 X147.057 Y181.858 E10.8861
G1 X145.081 Y181.979 E10.91093
G1 X143.102 Y182.021 E10.93575
G1 X140.261 Y181.941 E10.97139
G1 X138.025 Y181.773 E10.99951
G1 X136.059 Y181.54 E11.02434
G1 X134.104 Y181.228 E11.04916
G1 X132.163 Y180.838 E11.07399
G1 X130.24 Y180.369 E11.09881
G1 X128.337 Y179.823 E11.12364
G1 X126.486 Y179.212 E11.14809
G1 X124.627 Y178.531 E11.17291
G1 X122.798 Y177.775 E11.19773
G1 X121 Y176.945 E11.22257
G1 X119.237 Y176.044 E11.24739
G1 X117.232 Y174.905 E11.27631
G1 X116.613 Y174.534 E11.28536
G1 X114.935 Y173.482 E11.3102
G1 X113.994 Y172.849 E11.32442
G1 X113.199 Y172.301 E11.33653
G1 X111.592 Y171.145 E11.36135
G1 X110.628 Y170.402 E11.37662
G1 X109.851 Y169.788 E11.38903
G1 X107.777 Y168.055 E11.42293
G1 X107.32 Y167.651 E11.43058
G1 X105.983 Y166.424 E11.45333
G1 X105.606 Y166.065 E11.45986
G1 X104.302 Y164.775 E11.48286
G1 X103.694 Y164.151 E11.49379
G1 X102.341 Y162.706 E11.51861
G1 X101.101 Y161.27 E11.54241
G1 X100.482 Y160.525 E11.55455
G1 X98.946 Y158.579 E11.58564
G1 X98.505 Y157.99 E11.59487
G1 X97.172 Y156.12 E11.62367
G1 X96.694 Y155.415 E11.63435
G1 X95.616 Y153.754 E11.65918
G1 X94.719 Y152.249 E11.68115
G1 X94.096 Y151.16 E11.69689
G1 X93.148 Y149.422 E11.72171
G1 X92.206 Y147.508 E11.74847
G1 X91.821 Y146.681 E11.75991
G1 X90.948 Y144.692 E11.78714
G1 X90.7 Y144.091 E11.7953
G1 X89.821 Y141.801 E11.82606
G1 X89.48 Y140.841 E11.83883
G1 X88.856 Y138.963 E11.86365
G1 X88.414 Y137.456 E11.88335
G1 X88.209 Y136.712 E11.89302
G1 X87.737 Y134.858 E11.91701
G1 X87.562 Y134.11 E11.92665
G1 X87.15 Y132.174 E11.95147
G1 X86.874 Y130.595 E11.97157
