;START_OF_HEADER
;HEADER_VERSION:0.1
;FLAVOR:Griffin
;GENERATOR.NAME:Cura_SteamEngine
;GENERATOR.VERSION:5.2.2
;GENERATOR.BUILD_DATE:2023-01-24
;TARGET_MACHINE.NAME:Ultimaker S5
;EXTRUDER_TRAIN.0.INITIAL_TEMPERATURE:245
;EXTRUDER_TRAIN.0.MATERIAL.VOLUME_USED:10756
;EXTRUDER_TRAIN.0.MATERIAL.GUID:7c9575a6-c8d6-40ec-b3dd-18d7956bfaae
;EXTRUDER_TRAIN.0.NOZZLE.DIAMETER:0.4
;EXTRUDER_TRAIN.0.NOZZLE.NAME:AA 0.4
;BUILD_PLATE.INITIAL_TEMPERATURE:85
;BUILD_VOLUME.TEMPERATURE:35
;PRINT.TIME:7576
;PRINT.GROUPS:1
;PRINT.SIZE.MIN.X:146.463
;PRINT.SIZE.MIN.Y:87.223
;PRINT.SIZE.MIN.Z:0.2
;PRINT.SIZE.MAX.X:183.556
;PRINT.SIZE.MAX.Y:149.782
;PRINT.SIZE.MAX.Z:48.05
;SLICE_UUID:904eaa48-ceba-49cd-8eb2-08a4ecb0fe68
;END_OF_HEADER
;Generated with Cura_SteamEngine 5.2.2
T0
M82 ;absolute extrusion mode

G92 E0
M109 S245
G280 S1
G0 Z20.001
G1 F2700 E-6.5
;LAYER_COUNT:290
;LAYER:0
M106 S5.1
M204 S1000
M205 X20 Y20
G1 F600 Z2.2
G0 F9000 X176.392 Y132.077 Z2.2
;TYPE:SKIRT
G1 F600 Z0.2
G1 F900 E0
G1 F1350 X175.799 Y132.931 E0.01304
G1 X175.138 Y133.784 E0.02657
G1 X174.415 Y134.623 E0.04046
G1 X173.761 Y135.326 E0.0525
G1 X173.029 Y136.028 E0.06522
G1 X172.244 Y136.727 E0.0784
G1 X171.646 Y137.21 E0.08804
G1 X171.014 Y137.687 E0.09797
G1 X169.997 Y138.392 E0.11349
G1 X169.079 Y138.941 E0.1269
G1 X168.418 Y139.29 E0.13628
G1 X167.723 Y139.567 E0.14566
G1 X166.7 Y139.842 E0.15894
G1 X165.732 Y139.989 E0.17122
G1 X164.554 Y140.012 E0.186
G1 X163.656 Y139.912 E0.19733
G1 X162.926 Y139.75 E0.2067
G1 X162.145 Y139.495 E0.21701
G1 X161.452 Y139.215 E0.22638
G1 X160.823 Y138.88 E0.23532
G1 X160.017 Y138.397 E0.2471
G1 X158.845 Y137.589 E0.26495
G1 X157.735 Y136.711 E0.2827
G1 X157.138 Y136.184 E0.29269
G1 X156.383 Y135.465 E0.30576
G1 X155.775 Y134.841 E0.31669
G1 X155.405 Y134.429 E0.32363
G1 X154.663 Y133.535 E0.3382
G1 X153.935 Y132.55 E0.35356
G1 X153.457 Y131.845 E0.36424
G1 X153.175 Y131.393 E0.37092
G1 X152.552 Y130.304 E0.38665
G1 X152.282 Y129.782 E0.39402
G1 X151.772 Y128.671 E0.40936
G1 X151.46 Y127.916 E0.4196
G1 X151.058 Y126.783 E0.43468
G1 X150.905 Y126.299 E0.44104
G1 X150.7 Y125.555 E0.45072
G1 X150.458 Y124.543 E0.46377
G1 X150.36 Y124.04 E0.47019
G1 X150.177 Y122.882 E0.4849
G1 X150.05 Y121.627 E0.50071
G1 X149.995 Y120.433 E0.5157
G1 X150.008 Y119.256 E0.53046
G1 X151.466 Y95.197 E0.83273
G1 X151.551 Y94.453 E0.84212
G1 X151.738 Y93.619 E0.85284
G1 X152.022 Y92.792 E0.8638
G1 X152.303 Y92.099 E0.87318
G1 X152.655 Y91.439 E0.88256
G1 X153.103 Y90.786 E0.89249
G1 X153.411 Y90.387 E0.89881
G1 X153.899 Y89.82 E0.90819
G1 X154.445 Y89.308 E0.91758
G1 X155.067 Y88.831 E0.92741
G1 X155.692 Y88.419 E0.9368
G1 X156.788 Y87.881 E0.95211
G1 X157.757 Y87.548 E0.96496
G1 X158.984 Y87.297 E0.98066
G1 X160.129 Y87.223 E0.99505
G1 X169.983 Y87.227 E1.11862
G1 X171.223 Y87.324 E1.13422
G1 X172.161 Y87.526 E1.14625
G1 X173.158 Y87.86 E1.15944
G1 X174.059 Y88.28 E1.17191
G1 X175.053 Y88.907 E1.18664
G1 X175.786 Y89.512 E1.19856
G1 X176.621 Y90.402 E1.21387
G1 X177.209 Y91.216 E1.22646
G1 X177.58 Y91.866 E1.23584
G1 X177.905 Y92.621 E1.24615
G1 X178.127 Y93.233 E1.25432
G1 X178.345 Y93.949 E1.2637
G1 X178.484 Y94.684 E1.27308
G1 X178.534 Y95.196 E1.27953
G1 X180.003 Y119.372 E1.58327
G1 X179.999 Y120.525 E1.59773
G1 X179.969 Y121.403 E1.60874
G1 X179.868 Y122.526 E1.62288
G1 X179.804 Y123.031 E1.62927
G1 X179.66 Y123.909 E1.64043
G1 X179.483 Y124.787 E1.65166
G1 X179.301 Y125.542 E1.6614
G1 X179.07 Y126.365 E1.67212
G1 X178.744 Y127.37 E1.68537
G1 X178.566 Y127.853 E1.69182
G1 X178.235 Y128.656 E1.70271
G1 X177.83 Y129.548 E1.715
G1 X177.269 Y130.63 E1.73028
G1 X176.9 Y131.261 E1.73945
G1 X176.392 Y132.077 E1.7515
G0 F9000 X176.055 Y131.86
G1 F1350 X175.474 Y132.698 E1.76429
G1 X174.833 Y133.526 E1.77742
G1 X174.122 Y134.351 E1.79108
G1 X173.483 Y135.038 E1.80284
G1 X172.763 Y135.73 E1.81537
G1 X171.977 Y136.431 E1.82858
G1 X171.194 Y137.055 E1.84113
G1 X170.775 Y137.367 E1.84768
G1 X169.773 Y138.06 E1.86296
G1 X168.874 Y138.598 E1.8761
G1 X168.231 Y138.936 E1.88521
G1 X167.555 Y139.201 E1.89431
G1 X166.612 Y139.453 E1.90655
G1 X165.673 Y139.593 E1.91846
G1 X164.574 Y139.612 E1.93224
G1 X163.701 Y139.514 E1.94326
G1 X162.499 Y139.207 E1.95882
G1 X161.603 Y138.844 E1.97094
G1 X161.029 Y138.537 E1.9791
G1 X160.229 Y138.057 E1.9908
G1 X159.091 Y137.273 E2.00813
G1 X157.982 Y136.397 E2.02586
G1 X157.223 Y135.719 E2.03862
G1 X156.67 Y135.186 E2.04825
G1 X156.062 Y134.562 E2.05918
G1 X155.713 Y134.174 E2.06572
G1 X154.972 Y133.283 E2.08025
G1 X154.266 Y132.326 E2.09517
G1 X153.788 Y131.621 E2.10585
G1 X153.522 Y131.194 E2.11216
G1 X152.899 Y130.105 E2.12789
G1 X152.645 Y129.613 E2.13483
G1 X152.142 Y128.519 E2.14993
G1 X151.835 Y127.775 E2.16003
G1 X151.353 Y126.419 E2.17807
G1 X151.086 Y125.449 E2.19069
G1 X150.794 Y124.227 E2.20645
G1 X150.575 Y122.838 E2.22408
G1 X150.449 Y121.603 E2.23965
G1 X150.395 Y120.417 E2.25454
G1 X150.408 Y119.265 E2.26898
G1 X151.865 Y95.221 E2.57106
G1 X151.949 Y94.499 E2.58017
G1 X152.21 Y93.479 E2.59337
G1 X152.401 Y92.922 E2.60076
G1 X152.674 Y92.249 E2.60987
G1 X153.019 Y91.61 E2.61897
G1 X153.42 Y91.03 E2.62782
G1 X153.728 Y90.631 E2.63414
G1 X154.202 Y90.081 E2.64324
G1 X154.735 Y89.587 E2.65236
G1 X155.305 Y89.152 E2.66135
G1 X155.912 Y88.753 E2.67046
G1 X156.944 Y88.249 E2.68486
G1 X157.886 Y87.927 E2.69734
G1 X159.038 Y87.692 E2.71209
G1 X160.129 Y87.623 E2.7258
G1 X169.983 Y87.627 E2.84937
G1 X171.162 Y87.721 E2.8642
G1 X172.077 Y87.918 E2.87594
G1 X173.014 Y88.233 E2.88833
G1 X173.889 Y88.643 E2.90045
G1 X174.819 Y89.232 E2.91426
G1 X175.531 Y89.821 E2.92585
G1 X176.315 Y90.659 E2.94024
G1 X176.884 Y91.451 E2.95247
G1 X177.242 Y92.083 E2.96157
G1 X177.529 Y92.757 E2.97076
G1 X177.751 Y93.369 E2.97892
G1 X177.961 Y94.065 E2.98804
G1 X178.116 Y94.902 E2.99872
G1 X179.602 Y119.365 E3.30606
G1 X179.603 Y120.279 E3.31752
G1 X179.571 Y121.358 E3.33106
G1 X179.447 Y122.734 E3.34838
G1 X179.241 Y123.991 E3.36435
G1 X179.039 Y124.935 E3.37646
G1 X178.846 Y125.696 E3.38631
G1 X178.614 Y126.484 E3.39661
G1 X178.287 Y127.479 E3.40974
G1 X177.865 Y128.503 E3.42363
G1 X177.522 Y129.259 E3.43404
G1 X176.927 Y130.422 E3.45042
G1 X176.555 Y131.059 E3.45967
G1 X176.055 Y131.86 E3.47152
G0 F9000 X175.644 Y131.75
G1 F1350 X175.144 Y132.471 E3.48252
G1 X174.438 Y133.371 E3.49686
G1 X173.829 Y134.078 E3.50856
G1 X173.196 Y134.759 E3.52022
G1 X172.497 Y135.431 E3.53238
G1 X171.723 Y136.121 E3.54539
G1 X170.955 Y136.734 E3.55771
G1 X170.536 Y137.046 E3.56426
G1 X169.569 Y137.715 E3.57901
G1 X168.668 Y138.254 E3.59217
G1 X168.045 Y138.581 E3.601
G1 X167.388 Y138.835 E3.60983
G1 X166.519 Y139.063 E3.6211
G1 X165.615 Y139.196 E3.63255
G1 X164.594 Y139.213 E3.64536
G1 X163.746 Y139.116 E3.65606
G1 X162.624 Y138.828 E3.67059
G1 X161.754 Y138.473 E3.68237
G1 X161.235 Y138.194 E3.68976
G1 X160.44 Y137.717 E3.70139
G1 X159.323 Y136.948 E3.7184
G1 X158.253 Y136.102 E3.7355
G1 X157.498 Y135.429 E3.74818
G1 X156.956 Y134.907 E3.75762
G1 X156.181 Y134.111 E3.77155
G1 X155.29 Y133.04 E3.78902
G1 X154.597 Y132.101 E3.80366
G1 X153.984 Y131.196 E3.81737
G1 X153.246 Y129.907 E3.83599
G1 X153.007 Y129.445 E3.84252
G1 X152.622 Y128.618 E3.85396
G1 X152.212 Y127.641 E3.86724
G1 X151.732 Y126.289 E3.88523
G1 X151.412 Y125.108 E3.90058
G1 X151.185 Y124.138 E3.91307
G1 X150.972 Y122.789 E3.9302
G1 X150.847 Y121.563 E3.94565
G1 X150.795 Y120.42 E3.96
G1 X150.808 Y119.273 E3.97438
G1 X152.264 Y95.245 E4.27626
G1 X152.347 Y94.546 E4.28508
G1 X152.588 Y93.609 E4.29722
G1 X152.779 Y93.052 E4.3046
G1 X153.045 Y92.4 E4.31343
G1 X153.383 Y91.782 E4.32227
G1 X153.736 Y91.274 E4.33002
G1 X154.044 Y90.875 E4.33634
G1 X154.505 Y90.344 E4.34516
G1 X155.373 Y89.586 E4.35961
G1 X156.132 Y89.088 E4.371
G1 X157.101 Y88.617 E4.38451
G1 X158.015 Y88.307 E4.39661
G1 X159.09 Y88.089 E4.41037
G1 X160.129 Y88.023 E4.42342
G1 X169.983 Y88.027 E4.547
G1 X171.1 Y88.116 E4.56105
G1 X171.992 Y88.309 E4.57249
G1 X172.871 Y88.607 E4.58413
G1 X173.719 Y89.005 E4.59588
G1 X174.586 Y89.556 E4.60876
G1 X175.275 Y90.129 E4.62
G1 X176.005 Y90.915 E4.63345
G1 X176.559 Y91.685 E4.64535
G1 X176.902 Y92.299 E4.65417
G1 X177.153 Y92.894 E4.66227
G1 X177.375 Y93.506 E4.67043
G1 X177.577 Y94.18 E4.67925
G1 X177.719 Y94.969 E4.68931
G1 X179.202 Y119.373 E4.99591
G1 X179.203 Y120.279 E5.00727
G1 X179.171 Y121.347 E5.02067
G1 X179.05 Y122.688 E5.03755
G1 X178.821 Y124.044 E5.0548
G1 X178.651 Y124.839 E5.06499
G1 X178.525 Y125.35 E5.07159
G1 X178.301 Y126.143 E5.08193
G1 X177.916 Y127.33 E5.09757
G1 X177.495 Y128.351 E5.11142
G1 X177.159 Y129.091 E5.12162
G1 X176.577 Y130.228 E5.13763
G1 X176.105 Y131.029 E5.14929
G1 X175.644 Y131.75 E5.16002
G0 F9000 X175.316 Y131.522
G1 F1350 X174.82 Y132.237 E5.17094
G1 X174.134 Y133.112 E5.18488
G1 X173.708 Y133.613 E5.19313
G1 X173.018 Y134.363 E5.20591
G1 X172.42 Y134.956 E5.21647
G1 X171.466 Y135.814 E5.23256
G1 X170.893 Y136.276 E5.24179
G1 X170.297 Y136.725 E5.25115
G1 X169.348 Y137.382 E5.26562
G1 X168.463 Y137.911 E5.27855
G1 X167.859 Y138.226 E5.28709
G1 X167.223 Y138.468 E5.29563
G1 X166.427 Y138.673 E5.30594
G1 X165.557 Y138.8 E5.31696
G1 X164.611 Y138.814 E5.32883
G1 X163.792 Y138.718 E5.33917
G1 X162.748 Y138.448 E5.35269
G1 X161.906 Y138.102 E5.3641
G1 X161.44 Y137.851 E5.37074
G1 X160.669 Y137.389 E5.38201
G1 X159.554 Y136.62 E5.399
G1 X158.513 Y135.797 E5.41564
G1 X157.774 Y135.139 E5.42805
G1 X157.243 Y134.628 E5.43729
G1 X156.475 Y133.84 E5.45109
G1 X155.607 Y132.796 E5.46812
G1 X154.928 Y131.877 E5.48244
G1 X154.332 Y130.998 E5.49576
G1 X153.471 Y129.493 E5.51751
G1 X152.985 Y128.449 E5.53195
G1 X152.583 Y127.491 E5.54498
G1 X152.114 Y126.17 E5.56256
G1 X151.857 Y125.237 E5.57469
G1 X151.578 Y124.065 E5.5898
G1 X151.369 Y122.739 E5.60663
G1 X151.247 Y121.54 E5.62175
G1 X151.195 Y120.409 E5.63594
G1 X151.207 Y119.301 E5.64984
G1 X152.664 Y95.269 E5.95176
G1 X152.745 Y94.593 E5.9603
G1 X152.967 Y93.739 E5.97137
G1 X153.158 Y93.182 E5.97875
G1 X153.416 Y92.552 E5.98729
G1 X153.746 Y91.956 E5.99583
G1 X154.053 Y91.519 E6.00253
G1 X154.361 Y91.12 E6.00885
G1 X154.808 Y90.606 E6.01739
G1 X155.615 Y89.904 E6.03081
G1 X156.351 Y89.424 E6.04182
G1 X157.255 Y88.986 E6.05442
G1 X158.143 Y88.686 E6.06618
G1 X159.145 Y88.486 E6.07899
G1 X160.128 Y88.423 E6.09134
G1 X169.982 Y88.427 E6.21491
G1 X171.042 Y88.511 E6.22825
G1 X171.907 Y88.701 E6.23935
G1 X172.73 Y88.981 E6.25026
G1 X173.548 Y89.368 E6.2616
G1 X174.351 Y89.88 E6.27355
G1 X175.019 Y90.437 E6.28445
G1 X175.699 Y91.171 E6.297
G1 X176.233 Y91.918 E6.30852
G1 X176.562 Y92.514 E6.31705
G1 X176.777 Y93.03 E6.32406
G1 X176.999 Y93.642 E6.33223
G1 X177.194 Y94.295 E6.34077
G1 X177.336 Y95.268 E6.35311
G1 X178.802 Y119.407 E6.65638
G1 X178.8 Y120.485 E6.66989
G1 X178.771 Y121.327 E6.68046
G1 X178.654 Y122.628 E6.69684
G1 X178.476 Y123.715 E6.71065
G1 X178.262 Y124.744 E6.72383
G1 X178.078 Y125.474 E6.73327
G1 X177.917 Y126.032 E6.74056
G1 X177.537 Y127.2 E6.75596
G1 X177.028 Y128.421 E6.77255
G1 X176.68 Y129.16 E6.78279
G1 X176.22 Y130.048 E6.79533
G1 X175.864 Y130.656 E6.80417
G1 X175.316 Y131.522 E6.81702
G0 F9000 X175.121 Y131.091
G1 F1350 X174.511 Y131.982 E6.83056
G1 X173.985 Y132.661 E6.84133
G1 X173.403 Y133.354 E6.85268
G1 X172.628 Y134.195 E6.86702
G1 X171.964 Y134.834 E6.87858
G1 X171.203 Y135.512 E6.89136
G1 X170.477 Y136.092 E6.90301
G1 X169.886 Y136.527 E6.91222
G1 X169.117 Y137.054 E6.92391
G1 X168.258 Y137.568 E6.93646
G1 X167.674 Y137.87 E6.94471
G1 X167.059 Y138.1 E6.95294
G1 X166.332 Y138.284 E6.96234
G1 X165.5 Y138.403 E6.97288
G1 X164.631 Y138.413 E6.98378
G1 X163.839 Y138.32 E6.99378
G1 X162.87 Y138.066 E7.00634
G1 X161.927 Y137.676 E7.01914
G1 X160.88 Y137.049 E7.03444
G1 X159.798 Y136.303 E7.05093
G1 X158.761 Y135.484 E7.0675
G1 X158.197 Y134.985 E7.07694
G1 X157.673 Y134.491 E7.08597
G1 X156.78 Y133.58 E7.10197
G1 X155.917 Y132.542 E7.1189
G1 X155.259 Y131.652 E7.13278
G1 X154.67 Y130.783 E7.14594
G1 X153.824 Y129.304 E7.16731
G1 X153.347 Y128.28 E7.18148
G1 X152.956 Y127.349 E7.19414
G1 X152.498 Y126.057 E7.21133
G1 X152.191 Y124.926 E7.22602
G1 X151.97 Y123.983 E7.23817
G1 X151.766 Y122.69 E7.25459
G1 X151.647 Y121.518 E7.26936
G1 X151.595 Y120.395 E7.28346
G1 X151.607 Y119.309 E7.29708
G1 X153.063 Y95.293 E7.5988
G1 X153.142 Y94.641 E7.60704
G1 X153.345 Y93.868 E7.61706
G1 X153.536 Y93.311 E7.62444
G1 X153.786 Y92.704 E7.63267
G1 X154.177 Y92.012 E7.64264
G1 X154.677 Y91.364 E7.65291
G1 X155.11 Y90.87 E7.66114
G1 X155.856 Y90.222 E7.67354
G1 X156.569 Y89.76 E7.68419
G1 X157.413 Y89.354 E7.69593
G1 X158.271 Y89.066 E7.70728
G1 X159.201 Y88.882 E7.71917
G1 X160.128 Y88.823 E7.73082
G1 X169.982 Y88.827 E7.85439
G1 X170.982 Y88.906 E7.86697
G1 X171.82 Y89.092 E7.87774
G1 X172.587 Y89.355 E7.88791
G1 X173.377 Y89.73 E7.89887
G1 X174.119 Y90.206 E7.90993
G1 X174.762 Y90.745 E7.92045
G1 X175.393 Y91.428 E7.93211
G1 X175.907 Y92.151 E7.94323
G1 X176.286 Y92.849 E7.95319
G1 X176.623 Y93.779 E7.9656
G1 X176.809 Y94.409 E7.97384
G1 X176.937 Y95.293 E7.98504
G1 X178.402 Y119.415 E8.28809
G1 X178.4 Y120.471 E8.30134
G1 X178.372 Y121.295 E8.31168
G1 X178.256 Y122.583 E8.32789
G1 X178.081 Y123.65 E8.34145
G1 X177.917 Y124.46 E8.35182
G1 X177.748 Y125.159 E8.36084
G1 X177.532 Y125.921 E8.37077
G1 X177.163 Y127.059 E8.38577
G1 X176.665 Y128.253 E8.40199
G1 X176.325 Y128.976 E8.41201
G1 X175.934 Y129.73 E8.42266
G1 X175.519 Y130.454 E8.43313
G1 X175.121 Y131.091 E8.44255
G0 F9000 X174.782 Y130.878
G1 F1350 X174.183 Y131.752 E8.45584
G1 X173.669 Y132.416 E8.46637
G1 X173.098 Y133.095 E8.47749
G1 X172.432 Y133.818 E8.48982
G1 X171.862 Y134.383 E8.49988
G1 X171.044 Y135.118 E8.51367
G1 X170.391 Y135.653 E8.52426
G1 X169.819 Y136.083 E8.53323
G1 X168.903 Y136.716 E8.5472
G1 X168.052 Y137.225 E8.55963
G1 X167.49 Y137.514 E8.56756
G1 X166.896 Y137.731 E8.57549
G1 X166.069 Y137.918 E8.58612
G1 X165.443 Y138.006 E8.59405
G1 X164.649 Y138.014 E8.604
G1 X163.887 Y137.922 E8.61363
G1 X162.995 Y137.687 E8.6252
G1 X162.104 Y137.316 E8.6373
G1 X161.091 Y136.709 E8.65211
G1 X160.04 Y135.984 E8.66812
G1 X159.02 Y135.178 E8.68442
G1 X158.462 Y134.685 E8.69376
G1 X157.949 Y134.201 E8.70261
G1 X157.072 Y133.306 E8.71832
G1 X156.324 Y132.406 E8.733
G1 X155.727 Y131.619 E8.74538
G1 X155.009 Y130.571 E8.76131
G1 X154.184 Y129.13 E8.78214
G1 X153.71 Y128.111 E8.79623
G1 X153.326 Y127.194 E8.8087
G1 X152.883 Y125.948 E8.82528
G1 X152.58 Y124.835 E8.83975
G1 X152.364 Y123.913 E8.85162
G1 X152.163 Y122.641 E8.86777
G1 X152.045 Y121.475 E8.88247
G1 X151.995 Y120.385 E8.89615
G1 X152.015 Y119.192 E8.91111
G1 X153.462 Y95.318 E9.21105
G1 X153.54 Y94.69 E9.21899
G1 X153.723 Y93.998 E9.22796
G1 X153.914 Y93.441 E9.23535
G1 X154.157 Y92.857 E9.24328
G1 X154.521 Y92.222 E9.25246
G1 X154.994 Y91.609 E9.26217
G1 X155.411 Y91.134 E9.2701
G1 X156.099 Y90.541 E9.28149
G1 X156.787 Y90.096 E9.29176
G1 X157.572 Y89.72 E9.30268
G1 X158.398 Y89.446 E9.31359
G1 X159.256 Y89.279 E9.32455
G1 X160.128 Y89.223 E9.33551
G1 X169.982 Y89.227 E9.45908
G1 X170.922 Y89.302 E9.47091
G1 X171.733 Y89.483 E9.48133
G1 X172.634 Y89.819 E9.49339
G1 X173.205 Y90.092 E9.50132
G1 X173.887 Y90.532 E9.5115
G1 X174.504 Y91.052 E9.52162
G1 X175.086 Y91.685 E9.5324
G1 X175.58 Y92.382 E9.54312
G1 X175.928 Y93.036 E9.55241
G1 X176.247 Y93.915 E9.56413
G1 X176.425 Y94.522 E9.57207
G1 X176.538 Y95.317 E9.58214
G1 X178.002 Y119.414 E9.88488
G1 X178.003 Y120.281 E9.89575
G1 X177.973 Y121.272 E9.90818
G1 X177.859 Y122.534 E9.92407
G1 X177.646 Y123.799 E9.94016
G1 X177.486 Y124.552 E9.94982
G1 X177.36 Y125.063 E9.95642
G1 X177.148 Y125.81 E9.96615
G1 X176.786 Y126.924 E9.98084
G1 X176.302 Y128.086 E9.99663
G1 X175.97 Y128.792 E10.00641
G1 X175.579 Y129.546 E10.01706
G1 X175.173 Y130.252 E10.02728
G1 X174.782 Y130.878 E10.03653
G0 F9000 X174.33 Y130.838
G1 F1350 X173.858 Y131.518 E10.04691
G1 X173.219 Y132.335 E10.05992
G1 X172.657 Y132.989 E10.07073
G1 X171.982 Y133.707 E10.08309
G1 X171.432 Y134.237 E10.09267
G1 X170.778 Y134.82 E10.10366
G1 X170.14 Y135.342 E10.11399
G1 X169.58 Y135.762 E10.12277
G1 X168.692 Y136.375 E10.1363
