;START_OF_HEADER
;HEADER_VERSION:0.1
;FLAVOR:Griffin
;GENERATOR.NAME:Cura_SteamEngine
;GENERATOR.VERSION:5.2.2
;GENERATOR.BUILD_DATE:2023-01-24
;TARGET_MACHINE.NAME:Ultimaker S5
;EXTRUDER_TRAIN.0.INITIAL_TEMPERATURE:200
;EXTRUDER_TRAIN.0.MATERIAL.VOLUME_USED:11333
;EXTRUDER_TRAIN.0.MATERIAL.GUID:d9549dba-b9df-45b9-80a5-f7140a9a2f34
;EXTRUDER_TRAIN.0.NOZZLE.DIAMETER:0.4
;EXTRUDER_TRAIN.0.NOZZLE.NAME:AA 0.4
;BUILD_PLATE.INITIAL_TEMPERATURE:60
;BUILD_VOLUME.TEMPERATURE:28
;PRINT.TIME:7418
;PRINT.GROUPS:1
;PRINT.SIZE.MIN.X:127.18
;PRINT.SIZE.MIN.Y:64.371
;PRINT.SIZE.MIN.Z:0.2
;PRINT.SIZE.MAX.X:202.818
;PRINT.SIZE.MAX.Y:162.834
;PRINT.SIZE.MAX.Z:48.05
;SLICE_UUID:3b82be79-f7c5-4aae-9729-ea3937a190e8
;END_OF_HEADER
;Generated with Cura_SteamEngine 5.2.2
T0
M82 ;absolute extrusion mode

G92 E0
M109 S200
G280 S1
G0 Z20.001
G1 F2700 E-6.5
;LAYER_COUNT:293
;LAYER:0
M106 S255
M204 S1000
M205 X20 Y20
G0 F9000 X194.93 Y145.382 Z0.2
;TYPE:SKIRT
G1 F2700 E0
G1 F1035 X194.438 Y146.081 E0.01072
G1 X193.606 Y147.206 E0.02827
G1 X193.262 Y147.649 E0.0353
G1 X192.451 Y148.648 E0.05144
G1 X191.898 Y149.3 E0.06216
G1 X190.523 Y150.813 E0.0878
G1 X189.931 Y151.421 E0.09844
G1 X189.031 Y152.306 E0.11427
G1 X188.517 Y152.791 E0.12313
G1 X187.204 Y153.96 E0.14517
G1 X186.643 Y154.43 E0.15435
G1 X185.553 Y155.3 E0.17184
G1 X184.879 Y155.813 E0.18246
G1 X183.684 Y156.676 E0.20095
G1 X183.038 Y157.119 E0.21077
G1 X181.257 Y158.25 E0.23723
G1 X180.614 Y158.627 E0.24658
G1 X179.263 Y159.373 E0.26593
G1 X177.874 Y160.048 E0.2853
G1 X176.453 Y160.651 E0.30465
G1 X174.235 Y161.43 E0.33413
G1 X172.531 Y161.912 E0.35634
G1 X171.026 Y162.254 E0.3757
G1 X169.504 Y162.518 E0.39507
G1 X167.972 Y162.703 E0.41442
G1 X166.431 Y162.808 E0.43379
G1 X164.888 Y162.834 E0.45314
G1 X163.19 Y162.777 E0.47445
G1 X161.421 Y162.627 E0.49671
G1 X159.891 Y162.418 E0.51607
G1 X158.374 Y162.13 E0.53544
G1 X156.875 Y161.764 E0.55479
G1 X155.396 Y161.32 E0.57415
G1 X154.005 Y160.83 E0.59265
G1 X152.421 Y160.187 E0.61409
G1 X151.023 Y159.532 E0.63345
G1 X149.66 Y158.806 E0.65281
G1 X148.15 Y157.89 E0.67496
G1 X147.199 Y157.274 E0.68917
G1 X145.98 Y156.441 E0.70768
G1 X145.243 Y155.91 E0.71907
G1 X144.014 Y154.975 E0.73844
G1 X143.408 Y154.476 E0.74828
G1 X142.717 Y153.891 E0.75964
G1 X141.64 Y152.934 E0.77771
G1 X141.056 Y152.389 E0.78772
G1 X140.003 Y151.355 E0.80623
G1 X139.576 Y150.915 E0.81392
G1 X138.707 Y149.981 E0.82992
G1 X138.129 Y149.332 E0.84082
G1 X136.857 Y147.804 E0.86575
G1 X136.284 Y147.067 E0.87745
G1 X135.139 Y145.49 E0.90189
G1 X134.7 Y144.842 E0.91171
G1 X134.039 Y143.824 E0.92693
G1 X133.723 Y143.314 E0.93445
G1 X133.111 Y142.28 E0.94952
G1 X132.79 Y141.712 E0.9577
G1 X132.224 Y140.662 E0.97266
G1 X131.995 Y140.216 E0.97895
G1 X131.504 Y139.213 E0.99295
G1 X131.228 Y138.622 E1.00113
G1 X130.706 Y137.438 E1.01736
G1 X130.398 Y136.696 E1.02743
G1 X129.69 Y134.812 E1.05267
G1 X129.446 Y134.09 E1.06223
G1 X129.029 Y132.755 E1.07977
G1 X128.748 Y131.774 E1.09257
G1 X128.217 Y129.622 E1.12036
G1 X128.045 Y128.793 E1.13098
G1 X127.823 Y127.6 E1.1462
G1 X127.741 Y127.104 E1.1525
G1 X127.579 Y125.993 E1.16658
G1 X127.493 Y125.315 E1.17515
G1 X127.344 Y123.853 E1.19358
G1 X127.268 Y122.866 E1.206
G1 X127.189 Y121.324 E1.22536
G1 X127.18 Y120.548 E1.23509
G1 X127.181 Y119.543 E1.24769
G1 X127.236 Y117.766 E1.26999
G1 X128.694 Y93.762 E1.57156
G1 X128.827 Y92.224 E1.59092
G1 X129.04 Y90.695 E1.61028
G1 X129.332 Y89.179 E1.62964
G1 X129.702 Y87.68 E1.649
G1 X130.149 Y86.202 E1.66837
G1 X130.529 Y85.125 E1.68269
G1 X130.764 Y84.497 E1.6911
G1 X131.342 Y83.066 E1.71045
G1 X131.994 Y81.666 E1.72982
G1 X132.718 Y80.302 E1.74918
G1 X133.511 Y78.977 E1.76855
G1 X134.371 Y77.696 E1.7879
G1 X135.297 Y76.46 E1.80727
G1 X136.285 Y75.274 E1.82662
G1 X137.088 Y74.396 E1.84154
G1 X137.542 Y73.919 E1.8498
G1 X138.635 Y72.829 E1.86916
G1 X139.783 Y71.796 E1.88853
G1 X140.983 Y70.825 E1.90788
G1 X142.232 Y69.917 E1.92725
G1 X143.526 Y69.075 E1.94661
G1 X144.862 Y68.301 E1.96597
G1 X146.236 Y67.597 E1.98533
G1 X147.116 Y67.192 E1.99748
G1 X147.645 Y66.959 E2.00473
G1 X149.074 Y66.374 E2.02409
G1 X150.531 Y65.863 E2.04345
G1 X152.012 Y65.428 E2.06281
G1 X153.514 Y65.071 E2.08217
G1 X155.977 Y64.651 E2.1135
G1 X157.789 Y64.462 E2.13635
G1 X159.331 Y64.381 E2.15571
G1 X160.128 Y64.371 E2.16571
G1 X170.002 Y64.375 E2.28953
G1 X171.545 Y64.416 E2.30889
G1 X173.085 Y64.536 E2.32826
G1 X174.899 Y64.777 E2.35121
G1 X176.599 Y65.096 E2.3729
G1 X178.099 Y65.459 E2.39225
G1 X179.579 Y65.899 E2.41162
G1 X181.593 Y66.629 E2.43848
G1 X183.247 Y67.34 E2.46106
G1 X184.632 Y68.022 E2.48042
G1 X185.979 Y68.775 E2.49977
G1 X187.286 Y69.597 E2.51913
G1 X188.549 Y70.486 E2.5385
G1 X189.764 Y71.439 E2.55786
G1 X190.938 Y72.463 E2.5774
G1 X191.445 Y72.929 E2.58604
G1 X192.554 Y74.003 E2.6054
G1 X193.606 Y75.133 E2.62476
G1 X194.599 Y76.315 E2.64412
G1 X195.528 Y77.548 E2.66348
G1 X196.393 Y78.827 E2.68284
G1 X197.19 Y80.149 E2.7022
G1 X197.917 Y81.511 E2.72156
G1 X198.573 Y82.909 E2.74092
G1 X198.961 Y83.835 E2.75351
G1 X199.242 Y84.54 E2.76303
G1 X199.776 Y85.989 E2.7824
G1 X200.235 Y87.463 E2.80176
G1 X200.617 Y88.959 E2.82112
G1 X200.92 Y90.473 E2.84048
G1 X201.145 Y92 E2.85984
G1 X201.305 Y93.766 E2.88207
G1 X202.738 Y117.339 E3.17823
G1 X202.793 Y118.552 E3.19346
G1 X202.818 Y119.919 E3.21061
G1 X202.814 Y120.676 E3.2201
G1 X202.764 Y122.241 E3.23974
G1 X202.721 Y122.984 E3.24907
G1 X202.586 Y124.579 E3.26914
G1 X202.49 Y125.436 E3.27996
G1 X202.278 Y126.965 E3.29931
G1 X202.129 Y127.869 E3.3108
G1 X201.684 Y130.058 E3.33882
G1 X201.478 Y130.906 E3.34976
G1 X201.092 Y132.338 E3.36836
G1 X200.857 Y133.131 E3.37873
G1 X200.423 Y134.477 E3.39647
G1 X200.227 Y135.039 E3.40393
G1 X199.716 Y136.398 E3.42214
G1 X199.403 Y137.172 E3.43261
G1 X198.815 Y138.528 E3.45114
G1 X198.575 Y139.046 E3.4583
G1 X197.98 Y140.257 E3.47522
G1 X197.595 Y140.998 E3.48569
G1 X196.804 Y142.434 E3.50625
G1 X196.139 Y143.534 E3.52237
G1 X195.8 Y144.074 E3.53037
G1 X194.93 Y145.382 E3.55007
G0 F9000 X194.603 Y145.152
G1 F1035 X194.111 Y145.851 E3.56079
G1 X193.29 Y146.961 E3.5781
G1 X192.946 Y147.404 E3.58513
G1 X192.146 Y148.389 E3.60105
G1 X191.593 Y149.041 E3.61177
G1 X190.236 Y150.534 E3.63707
G1 X189.644 Y151.142 E3.64771
G1 X188.757 Y152.015 E3.66332
G1 X188.243 Y152.5 E3.67218
G1 X186.947 Y153.653 E3.69393
G1 X186.386 Y154.123 E3.70311
G1 X185.311 Y154.981 E3.72036
G1 X184.637 Y155.494 E3.73098
G1 X183.458 Y156.347 E3.74923
G1 X182.812 Y156.79 E3.75905
G1 X181.055 Y157.905 E3.78515
G1 X180.412 Y158.282 E3.7945
G1 X179.07 Y159.023 E3.81372
G1 X177.69 Y159.693 E3.83296
G1 X176.278 Y160.29 E3.85218
G1 X174.115 Y161.049 E3.88093
G1 X172.422 Y161.527 E3.90299
G1 X170.927 Y161.866 E3.92221
G1 X169.416 Y162.127 E3.94144
G1 X167.893 Y162.309 E3.96068
G1 X166.363 Y162.411 E3.97991
G1 X164.83 Y162.433 E3.99913
G1 X163.207 Y162.376 E4.0195
G1 X161.454 Y162.228 E4.04156
G1 X159.935 Y162.02 E4.06079
G1 X158.429 Y161.732 E4.08001
G1 X156.94 Y161.367 E4.09924
G1 X155.471 Y160.924 E4.11848
G1 X154.141 Y160.454 E4.13617
G1 X152.572 Y159.816 E4.15741
G1 X151.183 Y159.165 E4.17665
G1 X149.831 Y158.443 E4.19587
G1 X148.368 Y157.555 E4.21733
G1 X147.417 Y156.939 E4.23154
G1 X146.214 Y156.117 E4.24981
G1 X145.477 Y155.586 E4.2612
G1 X143.666 Y154.171 E4.29002
G1 X142.975 Y153.586 E4.30138
G1 X141.913 Y152.641 E4.3192
G1 X141.329 Y152.096 E4.32922
G1 X140.29 Y151.077 E4.34747
G1 X139.863 Y150.637 E4.35516
G1 X139.006 Y149.715 E4.37095
G1 X138.428 Y149.066 E4.38184
G1 X137.173 Y147.558 E4.40645
G1 X136.6 Y146.821 E4.41815
G1 X135.47 Y145.266 E4.44226
G1 X135.031 Y144.618 E4.45207
G1 X134.379 Y143.613 E4.4671
G1 X134.063 Y143.103 E4.47462
G1 X133.46 Y142.083 E4.48948
G1 X133.139 Y141.515 E4.49766
G1 X132.58 Y140.479 E4.51242
G1 X132.351 Y140.033 E4.51871
G1 X131.867 Y139.044 E4.53252
G1 X131.591 Y138.453 E4.5407
G1 X131.075 Y137.284 E4.55672
G1 X130.767 Y136.542 E4.5668
G1 X130.069 Y134.684 E4.59169
G1 X129.825 Y133.962 E4.60125
G1 X129.414 Y132.645 E4.61855
G1 X129.133 Y131.664 E4.63134
G1 X128.609 Y129.541 E4.65877
G1 X128.437 Y128.712 E4.66938
G1 X128.218 Y127.534 E4.68441
G1 X128.136 Y127.038 E4.69071
G1 X127.976 Y125.943 E4.70459
G1 X127.89 Y125.265 E4.71316
G1 X127.743 Y123.822 E4.73135
G1 X127.667 Y122.835 E4.74377
G1 X127.58 Y120.549 E4.77245
G1 X127.581 Y119.544 E4.78506
G1 X127.635 Y117.791 E4.80705
G1 X129.093 Y93.787 E5.10862
G1 X129.226 Y92.259 E5.12786
G1 X129.438 Y90.74 E5.14709
G1 X129.73 Y89.235 E5.16632
G1 X130.099 Y87.746 E5.18555
G1 X130.545 Y86.279 E5.20478
G1 X130.904 Y85.265 E5.21827
G1 X131.139 Y84.637 E5.22668
G1 X131.713 Y83.215 E5.24591
G1 X132.362 Y81.826 E5.26514
G1 X133.081 Y80.472 E5.28436
G1 X133.87 Y79.157 E5.30359
G1 X134.727 Y77.885 E5.32283
G1 X135.649 Y76.659 E5.34206
G1 X136.634 Y75.484 E5.36129
G1 X137.378 Y74.672 E5.3751
G1 X137.832 Y74.195 E5.38336
G1 X138.918 Y73.112 E5.40259
G1 X140.059 Y72.087 E5.42183
G1 X141.251 Y71.123 E5.44105
G1 X142.493 Y70.223 E5.46029
G1 X143.779 Y69.389 E5.47951
G1 X145.108 Y68.622 E5.49875
G1 X146.474 Y67.926 E5.51798
G1 X147.277 Y67.558 E5.52905
G1 X147.806 Y67.325 E5.5363
G1 X149.225 Y66.744 E5.55553
G1 X150.673 Y66.237 E5.57477
G1 X152.145 Y65.807 E5.594
G1 X153.637 Y65.454 E5.61323
G1 X156.032 Y65.047 E5.64369
G1 X157.831 Y64.86 E5.66637
G1 X160.128 Y64.771 E5.6952
G1 X170.002 Y64.775 E5.81903
G1 X171.535 Y64.816 E5.83826
G1 X173.064 Y64.936 E5.85749
G1 X174.837 Y65.172 E5.87992
G1 X176.525 Y65.489 E5.90146
G1 X178.015 Y65.85 E5.92068
G1 X179.485 Y66.289 E5.93992
G1 X181.446 Y67 E5.96608
G1 X183.089 Y67.707 E5.98851
G1 X184.464 Y68.386 E6.00774
G1 X185.802 Y69.135 E6.02697
G1 X187.099 Y69.953 E6.0462
G1 X188.351 Y70.838 E6.06543
G1 X189.556 Y71.786 E6.08465
G1 X190.667 Y72.757 E6.10316
G1 X191.174 Y73.223 E6.11179
G1 X192.276 Y74.29 E6.13103
G1 X193.32 Y75.413 E6.15026
G1 X194.305 Y76.589 E6.1695
G1 X195.227 Y77.814 E6.18872
G1 X196.083 Y79.086 E6.20795
G1 X196.873 Y80.401 E6.22719
G1 X197.592 Y81.755 E6.24641
G1 X198.24 Y83.145 E6.26564
G1 X198.59 Y83.984 E6.27704
G1 X198.871 Y84.689 E6.28656
G1 X199.401 Y86.127 E6.30578
G1 X199.856 Y87.592 E6.32502
G1 X200.233 Y89.078 E6.34424
G1 X200.533 Y90.582 E6.36348
G1 X200.754 Y92.1 E6.38271
G1 X200.906 Y93.79 E6.40399
G1 X202.339 Y117.363 E6.70015
G1 X202.394 Y118.568 E6.71528
G1 X202.418 Y119.917 E6.7322
G1 X202.414 Y120.674 E6.74169
G1 X202.365 Y122.218 E6.76106
G1 X202.322 Y122.961 E6.7704
G1 X202.188 Y124.535 E6.79021
G1 X202.092 Y125.392 E6.80102
G1 X201.884 Y126.9 E6.82011
G1 X201.735 Y127.804 E6.8316
G1 X201.295 Y129.963 E6.85923
G1 X201.089 Y130.811 E6.87017
G1 X200.708 Y132.224 E6.88853
G1 X200.473 Y133.017 E6.8989
G1 X200.045 Y134.345 E6.9164
G1 X199.849 Y134.907 E6.92386
G1 X199.345 Y136.248 E6.94182
G1 X199.032 Y137.022 E6.95229
G1 X198.452 Y138.359 E6.97057
G1 X198.212 Y138.877 E6.97773
G1 X197.625 Y140.073 E6.99444
G1 X197.24 Y140.814 E7.00491
G1 X196.459 Y142.232 E7.02521
G1 X195.8 Y143.322 E7.04118
G1 X195.461 Y143.862 E7.04918
G1 X194.603 Y145.152 E7.06861
G0 F9000 X194.276 Y144.922
G1 F1035 X193.784 Y145.621 E7.07933
G1 X192.974 Y146.715 E7.0964
G1 X192.63 Y147.158 E7.10343
G1 X191.841 Y148.13 E7.11913
G1 X191.288 Y148.782 E7.12985
G1 X189.95 Y150.255 E7.15481
G1 X189.358 Y150.863 E7.16545
G1 X188.482 Y151.724 E7.18085
G1 X187.968 Y152.209 E7.18971
G1 X186.69 Y153.347 E7.21117
G1 X186.129 Y153.817 E7.22035
G1 X185.069 Y154.663 E7.23736
G1 X184.395 Y155.176 E7.24798
G1 X183.232 Y156.017 E7.26598
G1 X182.586 Y156.46 E7.2758
G1 X180.853 Y157.56 E7.30154
G1 X180.21 Y157.937 E7.31089
G1 X178.876 Y158.673 E7.33
G1 X177.506 Y159.337 E7.34909
G1 X176.102 Y159.929 E7.3682
G1 X173.995 Y160.667 E7.39619
G1 X172.314 Y161.142 E7.4181
G1 X170.828 Y161.478 E7.4372
G1 X169.327 Y161.736 E7.4563
G1 X167.815 Y161.914 E7.47539
G1 X166.295 Y162.013 E7.4945
G1 X164.772 Y162.032 E7.5136
G1 X163.228 Y161.977 E7.53297
G1 X161.488 Y161.83 E7.55487
G1 X159.979 Y161.622 E7.57397
G1 X158.484 Y161.335 E7.59306
G1 X157.005 Y160.97 E7.61217
G1 X155.547 Y160.528 E7.63127
G1 X154.276 Y160.077 E7.64818
G1 X152.723 Y159.446 E7.6692
G1 X151.344 Y158.798 E7.68831
G1 X150.001 Y158.08 E7.70741
G1 X148.585 Y157.219 E7.72819
G1 X147.634 Y156.603 E7.7424
G1 X146.448 Y155.792 E7.76042
G1 X145.711 Y155.261 E7.77181
G1 X143.925 Y153.865 E7.80024
G1 X143.234 Y153.28 E7.81159
G1 X142.186 Y152.349 E7.82917
G1 X141.602 Y151.804 E7.83919
G1 X140.577 Y150.798 E7.8572
G1 X140.15 Y150.358 E7.86489
G1 X139.305 Y149.449 E7.88045
G1 X138.727 Y148.8 E7.89135
G1 X137.488 Y147.313 E7.91562
G1 X136.915 Y146.576 E7.92733
G1 X135.801 Y145.041 E7.95111
G1 X135.362 Y144.393 E7.96093
G1 X134.719 Y143.402 E7.97574
G1 X134.403 Y142.892 E7.98327
G1 X133.808 Y141.886 E7.99792
G1 X133.487 Y141.318 E8.0061
G1 X132.936 Y140.296 E8.02066
G1 X132.707 Y139.85 E8.02695
G1 X132.229 Y138.875 E8.04057
G1 X131.953 Y138.284 E8.04875
G1 X131.445 Y137.131 E8.06455
G1 X131.137 Y136.389 E8.07462
G1 X130.447 Y134.556 E8.09918
G1 X130.203 Y133.834 E8.10874
G1 X129.798 Y132.535 E8.12581
G1 X129.517 Y131.554 E8.1386
G1 X129.001 Y129.459 E8.16566
G1 X128.829 Y128.63 E8.17628
G1 X128.612 Y127.469 E8.19109
G1 X128.53 Y126.973 E8.19739
G1 X128.373 Y125.892 E8.21109
G1 X128.287 Y125.214 E8.21966
G1 X128.142 Y123.791 E8.2376
G1 X128.066 Y122.804 E8.25001
G1 X127.98 Y120.549 E8.27831
G1 X127.981 Y119.544 E8.29092
G1 X128.034 Y117.815 E8.31261
G1 X129.492 Y93.811 E8.61418
G1 X129.625 Y92.294 E8.63328
G1 X129.836 Y90.785 E8.65239
G1 X130.127 Y89.29 E8.67149
G1 X130.496 Y87.813 E8.69058
G1 X130.941 Y86.356 E8.70968
G1 X131.278 Y85.405 E8.72233
G1 X131.513 Y84.777 E8.73074
G1 X132.084 Y83.365 E8.74984
G1 X132.729 Y81.985 E8.76895
G1 X133.445 Y80.641 E8.78804
G1 X134.23 Y79.336 E8.80714
G1 X135.083 Y78.075 E8.82623
G1 X136.001 Y76.859 E8.84534
G1 X136.982 Y75.694 E8.86444
G1 X137.668 Y74.948 E8.87715
G1 X138.122 Y74.471 E8.8854
G1 X139.2 Y73.395 E8.9045
G1 X140.334 Y72.378 E8.92361
G1 X141.519 Y71.422 E8.9427
G1 X142.753 Y70.529 E8.9618
G1 X144.032 Y69.703 E8.9809
G1 X145.353 Y68.944 E9
G1 X146.712 Y68.256 E9.0191
G1 X147.967 Y67.691 E9.03636
G1 X149.377 Y67.114 E9.05547
G1 X150.815 Y66.612 E9.07457
G1 X152.277 Y66.186 E9.09366
G1 X153.759 Y65.837 E9.11276
G1 X156.086 Y65.444 E9.14235
G1 X157.872 Y65.258 E9.16487
G1 X160.128 Y65.171 E9.19318
G1 X170.002 Y65.175 E9.31701
G1 X171.524 Y65.216 E9.3361
G1 X173.042 Y65.336 E9.35519
G1 X174.774 Y65.567 E9.37711
G1 X176.451 Y65.882 E9.39851
G1 X177.931 Y66.242 E9.41761
G1 X179.39 Y66.679 E9.43671
G1 X181.301 Y67.374 E9.46221
G1 X182.93 Y68.075 E9.48445
G1 X184.296 Y68.749 E9.50355
G1 X185.624 Y69.495 E9.52265
G1 X186.911 Y70.309 E9.54175
G1 X188.154 Y71.189 E9.56084
G1 X189.349 Y72.134 E9.57995
G1 X190.397 Y73.052 E9.59742
G1 X190.904 Y73.518 E9.60606
G1 X191.997 Y74.578 E9.62515
G1 X193.034 Y75.693 E9.64424
G1 X194.011 Y76.862 E9.66335
G1 X194.925 Y78.08 E9.68245
G1 X195.774 Y79.345 E9.70155
G1 X196.555 Y80.652 E9.72065
G1 X197.267 Y81.999 E9.73975
G1 X197.906 Y83.381 E9.75885
G1 X198.218 Y84.132 E9.76904
G1 X198.499 Y84.837 E9.77856
G1 X199.026 Y86.266 E9.79766
G1 X199.476 Y87.72 E9.81675
G1 X199.85 Y89.197 E9.83585
G1 X200.146 Y90.691 E9.85495
G1 X200.363 Y92.198 E9.87405
G1 X200.507 Y93.814 E9.89439
G1 X201.94 Y117.387 E10.19055
G1 X201.994 Y118.584 E10.20558
G1 X202.018 Y119.915 E10.22227
G1 X202.014 Y120.672 E10.23177
G1 X201.966 Y122.195 E10.25087
G1 X201.923 Y122.938 E10.26021
G1 X201.791 Y124.49 E10.27974
G1 X201.695 Y125.347 E10.29056
G1 X201.489 Y126.835 E10.30939
G1 X201.34 Y127.739 E10.32088
