;START_OF_HEADER
;HEADER_VERSION:0.1
;FLAVOR:Griffin
;GENERATOR.NAME:Cura_SteamEngine
;GENERATOR.VERSION:5.2.2
;GENERATOR.BUILD_DATE:2023-01-24
;TARGET_MACHINE.NAME:Ultimaker S5
;EXTRUDER_TRAIN.0.INITIAL_TEMPERATURE:100
;EXTRUDER_TRAIN.0.MATERIAL.VOLUME_USED:10225
;EXTRUDER_TRAIN.0.MATERIAL.GUID:d9549dba-b9df-45b9-80a5-f7140a9a2f34
;EXTRUDER_TRAIN.0.NOZZLE.DIAMETER:0.4
;EXTRUDER_TRAIN.0.NOZZLE.NAME:AA 0.4
;EXTRUDER_TRAIN.1.INITIAL_TEMPERATURE:215
;EXTRUDER_TRAIN.1.MATERIAL.VOLUME_USED:4423
;EXTRUDER_TRAIN.1.MATERIAL.GUID:03f24266-0291-43c2-a6da-5211892a2699
;EXTRUDER_TRAIN.1.NOZZLE.DIAMETER:0.4
;EXTRUDER_TRAIN.1.NOZZLE.NAME:AA 0.4
;BUILD_PLATE.INITIAL_TEMPERATURE:60
;BUILD_VOLUME.TEMPERATURE:24
;PRINT.TIME:8967
;PRINT.GROUPS:1
;PRINT.SIZE.MIN.X:65.176
;PRINT.SIZE.MIN.Y:23.958
;PRINT.SIZE.MIN.Z:0.2
;PRINT.SIZE.MAX.X:330
;PRINT.SIZE.MAX.Y:237
;PRINT.SIZE.MAX.Z:48.05
;SLICE_UUID:b4b102b7-2bda-4c86-bdca-382c41223f83
;END_OF_HEADER
;Generated with Cura_SteamEngine 5.2.2
T1
M82 ;absolute extrusion mode

G92 E0
M109 S215
G280 S1
G0 Z20.001
G1 F2700 E-6.5
;LAYER_COUNT:281
;LAYER:0
M106 S255
M204 S1000
M205 X20 Y20
G1 F600 Z2.2
G0 F9000 X207.983 Y164.864 Z2.2
;TYPE:SKIRT
G1 F600 Z0.2
G1 F2700 E0
G1 F1440 X207.642 Y165.406 E0.00803
G1 X206.055 Y167.817 E0.04423
G1 X205.739 Y168.276 E0.05122
G1 X204.188 Y170.439 E0.08459
G1 X203.844 Y170.9 E0.09181
G1 X201.977 Y173.291 E0.12985
G1 X201.533 Y173.835 E0.13865
G1 X199.539 Y176.172 E0.17718
G1 X199.133 Y176.627 E0.18483
G1 X196.924 Y178.99 E0.22539
G1 X196.453 Y179.471 E0.23383
G1 X194.617 Y181.278 E0.26614
G1 X194.209 Y181.665 E0.27319
G1 X192.083 Y183.6 E0.30924
G1 X191.531 Y184.082 E0.31843
G1 X189.725 Y185.606 E0.34806
G1 X188.482 Y186.596 E0.36799
G1 X188 Y186.971 E0.37565
G1 X186.002 Y188.468 E0.40696
G1 X185.473 Y188.85 E0.41514
G1 X183.534 Y190.201 E0.44478
G1 X181.814 Y191.326 E0.47055
G1 X179.809 Y192.576 E0.50018
G1 X176.972 Y194.189 E0.54111
G1 X176.485 Y194.451 E0.54804
G1 X174.385 Y195.535 E0.57768
G1 X172.25 Y196.548 E0.60731
G1 X170.082 Y197.487 E0.63694
G1 X167.883 Y198.353 E0.66658
G1 X165.656 Y199.144 E0.69621
G1 X163.404 Y199.859 E0.72584
G1 X161.129 Y200.497 E0.75547
G1 X158.834 Y201.058 E0.7851
G1 X156.521 Y201.541 E0.81473
G1 X154.322 Y201.929 E0.84273
G1 X151.78 Y202.296 E0.87494
G1 X149.431 Y202.554 E0.90458
G1 X147.075 Y202.733 E0.93421
G1 X144.714 Y202.832 E0.96384
G1 X142.351 Y202.851 E0.99348
G1 X139.989 Y202.79 E1.02311
G1 X137.63 Y202.649 E1.05274
G1 X135.277 Y202.429 E1.08238
G1 X132.934 Y202.129 E1.112
G1 X130.601 Y201.749 E1.14164
G1 X128.283 Y201.291 E1.17127
G1 X125.688 Y200.681 E1.2047
G1 X125.148 Y200.543 E1.21169
G1 X122.868 Y199.919 E1.24133
G1 X120.612 Y199.218 E1.27096
G1 X118.38 Y198.442 E1.30059
G1 X116.176 Y197.59 E1.33023
G1 X114.002 Y196.665 E1.35985
G1 X111.86 Y195.666 E1.38949
G1 X109.754 Y194.595 E1.41912
G1 X107.685 Y193.454 E1.44875
G1 X106.053 Y192.487 E1.47254
G1 X105.095 Y191.902 E1.48662
G1 X103.099 Y190.637 E1.51625
G1 X101.148 Y189.305 E1.54588
G1 X99.737 Y188.279 E1.56775
G1 X98.871 Y187.633 E1.5813
G1 X97.001 Y186.189 E1.61093
G1 X95.558 Y185.006 E1.63433
G1 X93.765 Y183.467 E1.66396
G1 X92.785 Y182.58 E1.68054
G1 X92.062 Y181.913 E1.69287
G1 X90.352 Y180.281 E1.72252
G1 X89.005 Y178.914 E1.74658
G1 X88.309 Y178.188 E1.7592
G1 X86.703 Y176.455 E1.78882
G1 X84.917 Y174.381 E1.82315
G1 X84.38 Y173.732 E1.83371
G1 X82.261 Y171.039 E1.87668
G1 X81.819 Y170.448 E1.88594
G1 X79.988 Y167.881 E1.92548
G1 X79.64 Y167.369 E1.93324
G1 X78.034 Y164.896 E1.97022
G1 X77.718 Y164.386 E1.97774
G1 X76.305 Y161.999 E2.01253
G1 X75.983 Y161.43 E2.02073
G1 X74.525 Y158.727 E2.05924
G1 X73.205 Y156.03 E2.0969
G1 X72.928 Y155.434 E2.10514
G1 X71.773 Y152.807 E2.14113
G1 X71.529 Y152.22 E2.1491
G1 X70.659 Y150.023 E2.17873
G1 X70.198 Y148.762 E2.19557
G1 X69.844 Y147.764 E2.20885
G1 X69.092 Y145.524 E2.23848
G1 X68.195 Y142.453 E2.2786
G1 X67.959 Y141.57 E2.29006
G1 X67.388 Y139.277 E2.31969
G1 X66.957 Y137.308 E2.34497
G1 X66.355 Y134.126 E2.38558
G1 X66.273 Y133.63 E2.39189
G1 X65.891 Y131.016 E2.42502
G1 X65.805 Y130.337 E2.4336
G1 X65.458 Y126.925 E2.47661
G1 X65.382 Y125.938 E2.48902
G1 X65.241 Y123.579 E2.51866
G1 X65.176 Y120.51 E2.55715
G1 X65.177 Y119.504 E2.56977
G1 X65.219 Y117.141 E2.5994
G1 X65.305 Y115.341 E2.622
G1 X66.765 Y91.306 E2.92397
G1 X66.949 Y88.95 E2.9536
G1 X67.211 Y86.602 E2.98323
G1 X67.554 Y84.264 E3.01286
G1 X67.975 Y81.938 E3.0425
G1 X68.474 Y79.629 E3.07213
G1 X69.052 Y77.338 E3.10176
G1 X69.904 Y74.418 E3.1399
G1 X70.727 Y71.948 E3.17255
G1 X71.549 Y69.733 E3.20218
G1 X72.445 Y67.546 E3.23182
G1 X73.415 Y65.392 E3.26144
G1 X74.458 Y63.271 E3.29108
G1 X75.571 Y61.187 E3.32071
G1 X77.021 Y58.696 E3.35686
G1 X78.402 Y56.507 E3.38931
G1 X79.73 Y54.553 E3.41894
G1 X81.123 Y52.645 E3.44857
G1 X82.581 Y50.784 E3.47821
G1 X84.1 Y48.975 E3.50784
G1 X85.68 Y47.218 E3.53747
G1 X87.318 Y45.515 E3.5671
G1 X88.596 Y44.263 E3.58953
G1 X90.325 Y42.652 E3.61917
G1 X92.107 Y41.1 E3.6488
G1 X93.941 Y39.61 E3.67844
G1 X95.824 Y38.183 E3.70807
G1 X97.754 Y36.82 E3.7377
G1 X99.729 Y35.523 E3.76733
G1 X101.748 Y34.294 E3.79697
G1 X104.397 Y32.818 E3.83499
G1 X104.896 Y32.554 E3.84207
G1 X107.004 Y31.484 E3.87172
G1 X109.146 Y30.486 E3.90135
G1 X111.32 Y29.562 E3.93098
G1 X113.525 Y28.712 E3.96061
G1 X115.757 Y27.936 E3.99025
G1 X118.014 Y27.237 E4.01988
G1 X120.294 Y26.615 E4.04951
G1 X122.697 Y26.043 E4.08049
G1 X125.219 Y25.531 E4.11276
G1 X127.549 Y25.139 E4.14239
G1 X129.891 Y24.826 E4.17202
G1 X132.242 Y24.592 E4.20165
G1 X134.6 Y24.439 E4.23128
G1 X137.987 Y24.358 E4.27377
G1 X148.02 Y24.362 E4.39959
G1 X150.382 Y24.403 E4.42921
G1 X152.742 Y24.524 E4.45884
G1 X155.097 Y24.725 E4.48848
G1 X157.443 Y25.005 E4.51811
G1 X159.252 Y25.275 E4.54105
G1 X161.58 Y25.684 E4.57069
G1 X163.892 Y26.171 E4.60032
G1 X166.186 Y26.736 E4.62995
G1 X168.46 Y27.379 E4.65958
G1 X170.711 Y28.098 E4.68922
G1 X172.936 Y28.893 E4.71885
G1 X175.133 Y29.763 E4.74848
G1 X177.409 Y30.756 E4.77962
G1 X177.968 Y31.012 E4.78733
G1 X180.099 Y32.032 E4.81696
G1 X182.195 Y33.124 E4.84659
G1 X184.253 Y34.286 E4.87623
G1 X186.27 Y35.517 E4.90586
G1 X188.244 Y36.816 E4.9355
G1 X190.173 Y38.18 E4.96512
G1 X192.055 Y39.609 E4.99476
G1 X193.887 Y41.101 E5.02439
G1 X195.668 Y42.654 E5.05402
G1 X197.037 Y43.921 E5.07741
G1 X198.73 Y45.569 E5.10704
G1 X200.367 Y47.273 E5.13667
G1 X201.946 Y49.031 E5.16631
G1 X203.464 Y50.842 E5.19594
G1 X204.92 Y52.703 E5.22557
G1 X206.312 Y54.612 E5.2552
G1 X207.639 Y56.568 E5.28484
G1 X209.469 Y59.515 E5.32834
G1 X210.757 Y61.79 E5.36113
G1 X211.851 Y63.885 E5.39076
G1 X212.873 Y66.015 E5.42039
G1 X213.823 Y68.179 E5.45003
G1 X214.698 Y70.373 E5.47965
G1 X215.5 Y72.596 E5.50929
G1 X216.305 Y75.098 E5.54225
G1 X217.009 Y77.571 E5.57449
G1 X217.579 Y79.864 E5.60412
G1 X218.07 Y82.176 E5.63376
G1 X218.484 Y84.502 E5.66339
G1 X218.818 Y86.841 E5.69302
G1 X219.073 Y89.191 E5.72266
G1 X219.233 Y91.306 E5.74926
G1 X220.668 Y114.911 E6.04582
G1 X220.765 Y116.932 E6.07119
G1 X220.821 Y120.131 E6.11132
G1 X220.817 Y120.888 E6.12081
G1 X220.765 Y123.25 E6.15044
G1 X220.659 Y125.29 E6.17605
G1 X220.391 Y128.57 E6.21732
G1 X220.305 Y129.387 E6.22763
G1 X220.018 Y131.732 E6.25725
G1 X219.709 Y133.736 E6.28268
G1 X219.584 Y134.474 E6.29207
G1 X218.945 Y137.764 E6.3341
G1 X218.767 Y138.576 E6.34452
G1 X217.992 Y141.753 E6.38553
G1 X217.853 Y142.27 E6.39224
G1 X217.21 Y144.511 E6.42148
G1 X217.052 Y145.029 E6.42827
G1 X216.176 Y147.708 E6.46362
G1 X215.977 Y148.277 E6.47118
G1 X214.911 Y151.123 E6.50929
G1 X214.649 Y151.779 E6.51815
G1 X213.306 Y154.917 E6.56095
G1 X213.017 Y155.549 E6.56967
G1 X211.478 Y158.703 E6.61367
G1 X211.093 Y159.444 E6.62415
G1 X209.371 Y162.571 E6.66891
G1 X207.983 Y164.864 E6.70253
G0 F9000 X207.644 Y164.651
G1 F1440 X207.303 Y165.193 E6.71056
G1 X205.725 Y167.59 E6.74654
G1 X205.409 Y168.049 E6.75353
G1 X203.867 Y170.2 E6.78672
G1 X203.523 Y170.661 E6.79394
G1 X201.667 Y173.038 E6.83175
G1 X201.223 Y173.582 E6.84056
G1 X199.24 Y175.906 E6.87887
G1 X198.834 Y176.361 E6.88652
G1 X196.638 Y178.71 E6.92684
G1 X196.167 Y179.191 E6.93529
G1 X194.341 Y180.988 E6.96741
G1 X193.933 Y181.375 E6.97447
G1 X191.82 Y183.299 E7.0103
G1 X191.268 Y183.781 E7.01949
G1 X189.467 Y185.3 E7.04904
G1 X187.754 Y186.655 E7.07643
G1 X185.768 Y188.144 E7.10756
G1 X185.239 Y188.526 E7.11574
G1 X183.306 Y189.873 E7.14528
G1 X181.597 Y190.991 E7.17089
G1 X179.597 Y192.237 E7.20044
G1 X176.782 Y193.837 E7.24105
G1 X176.295 Y194.099 E7.24798
G1 X174.201 Y195.18 E7.27754
G1 X172.072 Y196.189 E7.30708
G1 X169.91 Y197.125 E7.33662
G1 X167.718 Y197.988 E7.36617
G1 X165.497 Y198.775 E7.39572
G1 X163.251 Y199.487 E7.42526
G1 X160.982 Y200.122 E7.45481
G1 X158.692 Y200.68 E7.48437
G1 X156.386 Y201.159 E7.5139
G1 X154.256 Y201.534 E7.54103
G1 X151.723 Y201.9 E7.57312
G1 X149.381 Y202.157 E7.60267
G1 X147.031 Y202.335 E7.63222
G1 X144.677 Y202.433 E7.66177
G1 X142.321 Y202.451 E7.69131
G1 X139.965 Y202.389 E7.72087
G1 X137.614 Y202.247 E7.7504
G1 X135.268 Y202.025 E7.77995
G1 X132.931 Y201.724 E7.8095
G1 X130.606 Y201.344 E7.83905
G1 X128.295 Y200.885 E7.86859
G1 X125.787 Y200.293 E7.90091
G1 X125.247 Y200.155 E7.9079
G1 X122.974 Y199.533 E7.93745
G1 X120.724 Y198.834 E7.967
G1 X118.499 Y198.059 E7.99654
G1 X116.301 Y197.209 E8.0261
G1 X114.134 Y196.285 E8.05564
G1 X111.999 Y195.288 E8.08519
G1 X109.899 Y194.219 E8.11474
G1 X107.837 Y193.08 E8.14428
G1 X106.261 Y192.146 E8.16725
G1 X105.303 Y191.561 E8.18133
G1 X103.314 Y190.299 E8.21087
G1 X101.368 Y188.97 E8.24042
G1 X99.976 Y187.959 E8.26199
G1 X99.11 Y187.313 E8.27554
G1 X97.246 Y185.872 E8.30509
G1 X95.813 Y184.698 E8.32832
G1 X94.026 Y183.164 E8.35785
G1 X93.056 Y182.286 E8.37426
G1 X92.333 Y181.619 E8.3866
G1 X90.629 Y179.992 E8.41614
G1 X89.294 Y178.637 E8.44
G1 X88.598 Y177.911 E8.45261
G1 X86.996 Y176.183 E8.48216
G1 X85.225 Y174.126 E8.5162
G1 X84.688 Y173.477 E8.52676
G1 X82.582 Y170.8 E8.56947
G1 X82.14 Y170.209 E8.57873
G1 X80.319 Y167.656 E8.61805
G1 X79.971 Y167.144 E8.62582
G1 X78.374 Y164.685 E8.66259
G1 X78.058 Y164.175 E8.67011
G1 X76.653 Y161.802 E8.70469
G1 X76.331 Y161.233 E8.71289
G1 X74.88 Y158.543 E8.75122
G1 X73.568 Y155.861 E8.78866
G1 X73.291 Y155.265 E8.7969
G1 X72.142 Y152.653 E8.83269
G1 X71.898 Y152.066 E8.84066
G1 X71.031 Y149.875 E8.87021
G1 X70.575 Y148.629 E8.88685
G1 X70.221 Y147.631 E8.90013
G1 X69.471 Y145.397 E8.92968
G1 X68.581 Y142.35 E8.96949
G1 X68.345 Y141.467 E8.98095
G1 X67.52 Y138.031 E9.02526
G1 X67.348 Y137.225 E9.0356
G1 X66.749 Y134.061 E9.07598
G1 X66.667 Y133.565 E9.08228
G1 X66.288 Y130.965 E9.11523
G1 X66.202 Y130.286 E9.12382
G1 X65.857 Y126.894 E9.16657
G1 X65.781 Y125.907 E9.17899
G1 X65.64 Y123.555 E9.20854
G1 X65.576 Y120.51 E9.24673
G1 X65.577 Y119.504 E9.25934
G1 X65.619 Y117.148 E9.28889
G1 X65.705 Y115.365 E9.31128
G1 X67.165 Y91.33 E9.61324
G1 X67.347 Y88.981 E9.64279
G1 X67.61 Y86.639 E9.67234
G1 X67.952 Y84.308 E9.70189
G1 X68.372 Y81.99 E9.73143
G1 X68.871 Y79.687 E9.76098
G1 X69.448 Y77.403 E9.79052
G1 X70.287 Y74.536 E9.82798
G1 X71.106 Y72.075 E9.86051
G1 X71.926 Y69.866 E9.89006
G1 X72.821 Y67.686 E9.91961
G1 X73.789 Y65.538 E9.94916
G1 X74.829 Y63.424 E9.9787
G1 X75.94 Y61.346 E10.00825
G1 X77.363 Y58.901 E10.04373
G1 X78.74 Y56.721 E10.07606
G1 X80.065 Y54.772 E10.10562
G1 X81.455 Y52.87 E10.13516
G1 X82.908 Y51.015 E10.16471
G1 X84.424 Y49.212 E10.19425
G1 X86 Y47.46 E10.2238
G1 X87.635 Y45.764 E10.25334
G1 X88.873 Y44.551 E10.27508
G1 X90.597 Y42.944 E10.30463
G1 X92.375 Y41.398 E10.33418
G1 X94.203 Y39.912 E10.36372
G1 X96.082 Y38.489 E10.39328
G1 X98.007 Y37.131 E10.42282
G1 X99.978 Y35.84 E10.45237
G1 X101.991 Y34.615 E10.48192
G1 X104.585 Y33.171 E10.51915
G1 X105.084 Y32.907 E10.52623
G1 X107.185 Y31.841 E10.55577
G1 X109.321 Y30.846 E10.58532
G1 X111.489 Y29.925 E10.61486
G1 X113.688 Y29.078 E10.64441
G1 X115.914 Y28.306 E10.67396
G1 X118.165 Y27.61 E10.70351
G1 X120.438 Y26.991 E10.73305
G1 X122.785 Y26.433 E10.7633
G1 X125.298 Y25.923 E10.79546
G1 X127.622 Y25.532 E10.82501
G1 X129.957 Y25.221 E10.85455
G1 X132.302 Y24.989 E10.8841
G1 X134.653 Y24.837 E10.91365
G1 X137.987 Y24.758 E10.95547
G1 X148.02 Y24.762 E11.08129
G1 X150.375 Y24.803 E11.11082
G1 X152.729 Y24.924 E11.14038
G1 X155.076 Y25.125 E11.16992
G1 X157.416 Y25.405 E11.19948
G1 X159.19 Y25.67 E11.22197
G1 X161.51 Y26.078 E11.25151
G1 X163.816 Y26.564 E11.28106
G1 X166.103 Y27.128 E11.3106
G1 X168.371 Y27.77 E11.34016
G1 X170.615 Y28.488 E11.36971
G1 X172.833 Y29.282 E11.39925
G1 X175.023 Y30.15 E11.42879
G1 X177.242 Y31.12 E11.45916
G1 X177.801 Y31.376 E11.46687
G1 X179.927 Y32.393 E11.49643
G1 X182.016 Y33.482 E11.52597
G1 X184.068 Y34.641 E11.55552
G1 X186.078 Y35.869 E11.58506
G1 X188.046 Y37.165 E11.61461
G1 X189.969 Y38.527 E11.64416
G1 X191.845 Y39.953 E11.67371
G1 X193.671 Y41.442 E11.70326
G1 X195.445 Y42.992 E11.7328
G1 X196.763 Y44.213 E11.75533
G1 X198.451 Y45.855 E11.78486
G1 X200.084 Y47.555 E11.81442
G1 X201.657 Y49.309 E11.84397
G1 X203.17 Y51.115 E11.87352
G1 X204.621 Y52.971 E11.90306
G1 X206.008 Y54.876 E11.93261
G1 X207.33 Y56.826 E11.96215
G1 X209.125 Y59.719 E12.00485
G1 X210.409 Y61.987 E12.03753
G1 X211.499 Y64.076 E12.06708
G1 X212.518 Y66.2 E12.09662
G1 X213.464 Y68.358 E12.12617
G1 X214.336 Y70.547 E12.15572
G1 X215.134 Y72.764 E12.18527
G1 X215.923 Y75.215 E12.21756
G1 X216.624 Y77.681 E12.24971
G1 X217.192 Y79.967 E12.27925
G1 X217.682 Y82.272 E12.3088
G1 X218.093 Y84.592 E12.33834
G1 X218.425 Y86.925 E12.3679
G1 X218.678 Y89.267 E12.39744
G1 X218.834 Y91.33 E12.42338
G1 X220.269 Y114.935 E12.71994
G1 X220.365 Y116.948 E12.74521
G1 X220.421 Y120.129 E12.78511
G1 X220.417 Y120.886 E12.79461
G1 X220.365 Y123.241 E12.82414
G1 X220.259 Y125.267 E12.84959
G1 X219.994 Y128.528 E12.89062
G1 X219.908 Y129.345 E12.90092
G1 X219.621 Y131.684 E12.93047
G1 X219.314 Y133.67 E12.95567
G1 X219.189 Y134.408 E12.96506
G1 X218.554 Y137.678 E13.00683
G1 X218.376 Y138.49 E13.01725
G1 X217.606 Y141.649 E13.05803
G1 X217.467 Y142.166 E13.06474
G1 X216.828 Y144.394 E13.09381
G1 X216.67 Y144.912 E13.1006
G1 X215.798 Y147.576 E13.13575
G1 X215.599 Y148.145 E13.14331
G1 X214.54 Y150.975 E13.1812
G1 X214.278 Y151.631 E13.19006
G1 X212.942 Y154.751 E13.23262
G1 X212.653 Y155.383 E13.24134
G1 X211.123 Y158.519 E13.2851
G1 X210.738 Y159.26 E13.29557
G1 X209.025 Y162.37 E13.34009
G1 X207.644 Y164.651 E13.37353
G0 F9000 X207.306 Y164.438
G1 F1440 X206.965 Y164.98 E13.38156
G1 X205.396 Y167.363 E13.41734
G1 X205.08 Y167.822 E13.42433
G1 X203.547 Y169.961 E13.45733
G1 X203.203 Y170.422 E13.46455
G1 X201.358 Y172.785 E13.50214
G1 X200.914 Y173.329 E13.51095
G1 X198.942 Y175.639 E13.54904
G1 X198.536 Y176.094 E13.55668
G1 X196.352 Y178.43 E13.59679
G1 X195.881 Y178.911 E13.60523
G1 X194.066 Y180.698 E13.63717
G1 X193.658 Y181.085 E13.64422
G1 X191.556 Y182.997 E13.67985
G1 X191.004 Y183.479 E13.68904
G1 X189.209 Y184.994 E13.7185
G1 X187.509 Y186.339 E13.74568
G1 X185.534 Y187.82 E13.77664
G1 X185.005 Y188.202 E13.78482
G1 X183.077 Y189.544 E13.81428
G1 X181.38 Y190.655 E13.83972
G1 X179.385 Y191.897 E13.86919
G1 X176.593 Y193.485 E13.90947
G1 X176.106 Y193.747 E13.9164
G1 X174.018 Y194.824 E13.94587
G1 X171.895 Y195.83 E13.97533
G1 X169.739 Y196.763 E14.00479
G1 X167.552 Y197.623 E14.03426
G1 X165.337 Y198.407 E14.06372
G1 X163.097 Y199.115 E14.09318
G1 X160.835 Y199.747 E14.12264
G1 X158.552 Y200.301 E14.1521
G1 X156.251 Y200.778 E14.18156
G1 X153.991 Y201.168 E14.21032
G1 X151.665 Y201.504 E14.2398
G1 X149.33 Y201.76 E14.26925
G1 X146.987 Y201.937 E14.29872
G1 X144.64 Y202.034 E14.32818
G1 X142.291 Y202.051 E14.35763
G1 X139.942 Y201.988 E14.3871
G1 X137.597 Y201.844 E14.41657
G1 X135.258 Y201.622 E14.44603
G1 X132.928 Y201.319 E14.47549
G1 X130.61 Y200.938 E14.50495
G1 X128.306 Y200.478 E14.53442
G1 X125.886 Y199.906 E14.5656
G1 X125.346 Y199.768 E14.57259
G1 X123.08 Y199.147 E14.60205
G1 X120.836 Y198.45 E14.63152
G1 X118.618 Y197.677 E14.66098
G1 X116.427 Y196.829 E14.69044
G1 X114.266 Y195.906 E14.71991
G1 X112.138 Y194.911 E14.74937
